(G-CODE GENERATED BY FLATCAM v8.991 - www.flatcam.org - Version Date: 2019/12/27)

(Name: ButterflyJewel-F_Cu.gbr_iso_cnc)
(Type: G-code from Geometry)
(Units: MM)

(Created on Monday, 10 February 2020 at 14:57)

(TOOL DIAMETER: 0.1 mm)
(Feedrate: 120.0 mm/min)
(Feedrate_Z: 60.0 mm/min)
(Feedrate rapids 1500.0 mm/min)

(Z_Cut: -0.1 mm)
(Z_Move: 2.0 mm)
(Z Toolchange: 15.0 mm)
(X,Y Toolchange: 0.0000, 0.0000 mm)
(Z Start: None mm)
(Z End: 15.0 mm)
(Steps per circle: 64)
(Preprocessor Geometry: default)

(X range:    0.2800 ...   38.9600  mm)
(Y range:   -0.2149 ...   23.4399  mm)

(Spindle Speed: None RPM)
G21
G90
G94




G01 F120.00
G00 Z2.0000

M03
G00 X14.1304 Y5.1746
G01 F60.00
G01 Z-0.020
G01 F120.00
G01 X14.1457 Y5.0728
G01 X14.1710 Y4.9729
G01 X14.2059 Y4.8759
G01 X14.2502 Y4.7829
G01 X14.3034 Y4.6946
G01 X14.3618 Y4.6158
G01 X14.4308 Y4.5393
G01 X14.5070 Y4.4699
G01 X14.5896 Y4.4084
G01 X14.6779 Y4.3552
G01 X14.7709 Y4.3109
G01 X14.8679 Y4.2760
G01 X14.9678 Y4.2507
G01 X15.0696 Y4.2354
G01 X15.1725 Y4.2301
G01 X15.2755 Y4.2349
G01 X15.3774 Y4.2498
G01 X15.4821 Y4.2760
G01 X15.5745 Y4.3090
G01 X15.6678 Y4.3529
G01 X15.7563 Y4.4056
G01 X15.8392 Y4.4668
G01 X15.9192 Y4.5393
G01 X15.9882 Y4.6158
G01 X16.0494 Y4.6987
G01 X16.1021 Y4.7872
G01 X16.1441 Y4.8759
G01 X16.1790 Y4.9729
G01 X16.2043 Y5.0728
G01 X16.2196 Y5.1746
G01 X16.2246 Y5.2701
G01 X17.2043 Y6.2499
G01 X19.9739 Y6.2499
G01 X19.9739 Y5.4433
G01 X19.9752 Y5.4163
G01 X19.9782 Y5.3949
G01 X19.8940 Y5.3107
G01 X19.8882 Y5.3044
G01 X19.8814 Y5.2957
G01 X19.8732 Y5.2820
G01 X19.8687 Y5.2719
G01 X19.8652 Y5.2614
G01 X19.8628 Y5.2507
G01 X19.8614 Y5.2397
G01 X19.8611 Y5.2287
G01 X19.8614 Y5.2226
G01 X19.8638 Y5.2068
G01 X19.8667 Y5.1962
G01 X19.8687 Y5.1904
G01 X19.8755 Y5.1760
G01 X19.8814 Y5.1666
G01 X19.8851 Y5.1617
G01 X19.8940 Y5.1516
G01 X19.9824 Y5.0632
G01 X19.9887 Y5.0574
G01 X19.9974 Y5.0506
G01 X20.0068 Y5.0448
G01 X20.0212 Y5.0379
G01 X20.0317 Y5.0345
G01 X20.0376 Y5.0330
G01 X20.0485 Y5.0311
G01 X20.0595 Y5.0303
G01 X20.0705 Y5.0306
G01 X20.0863 Y5.0330
G01 X20.0969 Y5.0359
G01 X20.1027 Y5.0379
G01 X20.1128 Y5.0424
G01 X20.1264 Y5.0506
G01 X20.1352 Y5.0574
G01 X20.1415 Y5.0632
G01 X20.2256 Y5.1474
G01 X20.2471 Y5.1444
G01 X20.2716 Y5.1432
G01 X20.3010 Y5.1444
G01 X20.3302 Y5.1485
G01 X20.3635 Y5.1569
G01 X20.3912 Y5.1670
G01 X20.4134 Y5.1775
G01 X20.4387 Y5.1924
G01 X20.4625 Y5.2098
G01 X20.4845 Y5.2294
G01 X20.5076 Y5.2548
G01 X20.5249 Y5.2786
G01 X20.5399 Y5.3040
G01 X20.5504 Y5.3262
G01 X20.5605 Y5.3538
G01 X20.5689 Y5.3872
G01 X20.5729 Y5.4163
G01 X20.5742 Y5.4433
G01 X20.5742 Y5.4959
G01 X20.6541 Y5.5759
G01 X20.6600 Y5.5822
G01 X20.6667 Y5.5909
G01 X20.6726 Y5.6003
G01 X20.6775 Y5.6101
G01 X20.6815 Y5.6204
G01 X20.6844 Y5.6311
G01 X20.6863 Y5.6420
G01 X20.6870 Y5.6530
G01 X20.6867 Y5.6640
G01 X20.6854 Y5.6749
G01 X20.6829 Y5.6857
G01 X20.6794 Y5.6962
G01 X20.6726 Y5.7106
G01 X20.6667 Y5.7199
G01 X20.6631 Y5.7249
G01 X20.6558 Y5.7332
G01 X20.5742 Y5.8149
G01 X20.5742 Y6.5309
G01 X20.5725 Y6.5628
G01 X20.5679 Y6.5919
G01 X20.5605 Y6.6204
G01 X20.5504 Y6.6480
G01 X20.5399 Y6.6702
G01 X20.5249 Y6.6956
G01 X20.5076 Y6.7194
G01 X20.4880 Y6.7414
G01 X20.4672 Y6.7622
G01 X20.4473 Y6.7804
G01 X20.4197 Y6.8009
G01 X20.3943 Y6.8158
G01 X20.3721 Y6.8263
G01 X20.3445 Y6.8364
G01 X20.3159 Y6.8438
G01 X20.2820 Y6.8489
G01 X20.2550 Y6.8501
G01 X17.0800 Y6.8501
G01 X17.0481 Y6.8484
G01 X17.0191 Y6.8438
G01 X16.9905 Y6.8364
G01 X16.9674 Y6.8282
G01 X16.9364 Y6.8135
G01 X16.9113 Y6.7981
G01 X16.8915 Y6.7835
G01 X16.8696 Y6.7639
G01 X16.0144 Y5.9088
G01 X15.9851 Y5.9480
G01 X15.9157 Y6.0242
G01 X15.8392 Y6.0932
G01 X15.7563 Y6.1544
G01 X15.6678 Y6.2071
G01 X15.5745 Y6.2510
G01 X15.4821 Y6.2840
G01 X15.3822 Y6.3093
G01 X15.2755 Y6.3251
G01 X15.1725 Y6.3299
G01 X15.0696 Y6.3246
G01 X14.9678 Y6.3093
G01 X14.8679 Y6.2840
G01 X14.7709 Y6.2491
G01 X14.6779 Y6.2048
G01 X14.5896 Y6.1516
G01 X14.5108 Y6.0932
G01 X14.4308 Y6.0207
G01 X14.3618 Y5.9442
G01 X14.3034 Y5.8654
G01 X14.2479 Y5.7728
G01 X14.2040 Y5.6795
G01 X14.1710 Y5.5871
G01 X14.1448 Y5.4824
G01 X14.1304 Y5.3854
G01 X14.1251 Y5.2825
G01 X14.1304 Y5.1746
G00 Z2.0000
G00 X17.1395 Y4.2277
G01 F60.00
G01 Z-0.020
G01 F120.00
G01 X17.1414 Y4.2169
G01 X17.1429 Y4.2109
G01 X17.1464 Y4.2004
G01 X17.1509 Y4.1904
G01 X17.1591 Y4.1767
G01 X17.1658 Y4.1680
G01 X17.1716 Y4.1617
G01 X17.6843 Y3.6490
G01 X17.6944 Y3.6401
G01 X17.6993 Y3.6364
G01 X17.7087 Y3.6305
G01 X17.7231 Y3.6237
G01 X17.7336 Y3.6202
G01 X17.7395 Y3.6188
G01 X17.7504 Y3.6169
G01 X17.7663 Y3.6161
G01 X17.7773 Y3.6169
G01 X17.7882 Y3.6188
G01 X17.7941 Y3.6202
G01 X17.8046 Y3.6237
G01 X17.8190 Y3.6305
G01 X17.8284 Y3.6364
G01 X17.8333 Y3.6401
G01 X17.8416 Y3.6473
G01 X17.9318 Y3.7374
G01 X17.9407 Y3.7475
G01 X17.9444 Y3.7524
G01 X17.9502 Y3.7618
G01 X17.9571 Y3.7762
G01 X17.9591 Y3.7819
G01 X17.9620 Y3.7926
G01 X17.9639 Y3.8035
G01 X17.9647 Y3.8145
G01 X17.9639 Y3.8304
G01 X17.9620 Y3.8413
G01 X17.9605 Y3.8472
G01 X17.9552 Y3.8622
G01 X17.9502 Y3.8721
G01 X17.9471 Y3.8774
G01 X17.9376 Y3.8902
G01 X17.9318 Y3.8965
G01 X17.4191 Y4.4091
G01 X17.4090 Y4.4181
G01 X17.4041 Y4.4217
G01 X17.3947 Y4.4276
G01 X17.3803 Y4.4344
G01 X17.3746 Y4.4365
G01 X17.3639 Y4.4394
G01 X17.3482 Y4.4417
G01 X17.3371 Y4.4420
G01 X17.3310 Y4.4417
G01 X17.3152 Y4.4394
G01 X17.3046 Y4.4365
G01 X17.2988 Y4.4344
G01 X17.2844 Y4.4276
G01 X17.2751 Y4.4217
G01 X17.2701 Y4.4181
G01 X17.2600 Y4.4091
G01 X17.1716 Y4.3208
G01 X17.1658 Y4.3144
G01 X17.1591 Y4.3057
G01 X17.1509 Y4.2920
G01 X17.1464 Y4.2820
G01 X17.1429 Y4.2715
G01 X17.1404 Y4.2607
G01 X17.1391 Y4.2498
G01 X17.1388 Y4.2388
G01 X17.1395 Y4.2277
G00 Z2.0000
G00 X17.4931 Y4.5813
G01 F60.00
G01 Z-0.020
G01 F120.00
G01 X17.4949 Y4.5704
G01 X17.4964 Y4.5645
G01 X17.4999 Y4.5540
G01 X17.5044 Y4.5439
G01 X17.5126 Y4.5303
G01 X17.5194 Y4.5215
G01 X17.5252 Y4.5152
G01 X18.0378 Y4.0026
G01 X18.0480 Y3.9936
G01 X18.0529 Y3.9900
G01 X18.0622 Y3.9841
G01 X18.0766 Y3.9773
G01 X18.0871 Y3.9738
G01 X18.0931 Y3.9723
G01 X18.1039 Y3.9704
G01 X18.1199 Y3.9697
G01 X18.1309 Y3.9704
G01 X18.1417 Y3.9723
G01 X18.1477 Y3.9738
G01 X18.1582 Y3.9773
G01 X18.1726 Y3.9841
G01 X18.1819 Y3.9900
G01 X18.1868 Y3.9936
G01 X18.1952 Y4.0009
G01 X18.2853 Y4.0909
G01 X18.2943 Y4.1011
G01 X18.2979 Y4.1060
G01 X18.3038 Y4.1153
G01 X18.3106 Y4.1297
G01 X18.3127 Y4.1355
G01 X18.3156 Y4.1462
G01 X18.3174 Y4.1570
G01 X18.3182 Y4.1680
G01 X18.3174 Y4.1840
G01 X18.3156 Y4.1948
G01 X18.3141 Y4.2008
G01 X18.3087 Y4.2158
G01 X18.3038 Y4.2257
G01 X18.3006 Y4.2309
G01 X18.2911 Y4.2437
G01 X18.2853 Y4.2500
G01 X17.7727 Y4.7627
G01 X17.7626 Y4.7716
G01 X17.7576 Y4.7753
G01 X17.7483 Y4.7812
G01 X17.7339 Y4.7880
G01 X17.7281 Y4.7900
G01 X17.7175 Y4.7929
G01 X17.7017 Y4.7953
G01 X17.6907 Y4.7956
G01 X17.6846 Y4.7953
G01 X17.6688 Y4.7929
G01 X17.6581 Y4.7900
G01 X17.6524 Y4.7880
G01 X17.6380 Y4.7812
G01 X17.6286 Y4.7753
G01 X17.6237 Y4.7716
G01 X17.6136 Y4.7627
G01 X17.5252 Y4.6743
G01 X17.5194 Y4.6680
G01 X17.5126 Y4.6593
G01 X17.5044 Y4.6456
G01 X17.4999 Y4.6355
G01 X17.4964 Y4.6250
G01 X17.4940 Y4.6143
G01 X17.4926 Y4.6033
G01 X17.4923 Y4.5923
G01 X17.4931 Y4.5813
G00 Z2.0000
G00 X17.8466 Y4.9349
G01 F60.00
G01 Z-0.020
G01 F120.00
G01 X17.8485 Y4.9240
G01 X17.8500 Y4.9180
G01 X17.8535 Y4.9075
G01 X17.8580 Y4.8975
G01 X17.8662 Y4.8838
G01 X17.8729 Y4.8751
G01 X17.8787 Y4.8688
G01 X18.3914 Y4.3561
G01 X18.4015 Y4.3472
G01 X18.4064 Y4.3435
G01 X18.4158 Y4.3377
G01 X18.4302 Y4.3308
G01 X18.4407 Y4.3273
G01 X18.4466 Y4.3259
G01 X18.4575 Y4.3240
G01 X18.4734 Y4.3232
G01 X18.4844 Y4.3240
G01 X18.4953 Y4.3259
G01 X18.5012 Y4.3273
G01 X18.5117 Y4.3308
G01 X18.5261 Y4.3377
G01 X18.5355 Y4.3435
G01 X18.5404 Y4.3472
G01 X18.5487 Y4.3544
G01 X18.6389 Y4.4445
G01 X18.6478 Y4.4546
G01 X18.6515 Y4.4595
G01 X18.6573 Y4.4689
G01 X18.6642 Y4.4833
G01 X18.6662 Y4.4891
G01 X18.6691 Y4.4997
G01 X18.6710 Y4.5106
G01 X18.6718 Y4.5216
G01 X18.6710 Y4.5375
G01 X18.6691 Y4.5484
G01 X18.6677 Y4.5543
G01 X18.6623 Y4.5693
G01 X18.6573 Y4.5792
G01 X18.6542 Y4.5845
G01 X18.6447 Y4.5973
G01 X18.6389 Y4.6036
G01 X18.1262 Y5.1163
G01 X18.1161 Y5.1252
G01 X18.1112 Y5.1288
G01 X18.1019 Y5.1347
G01 X18.0875 Y5.1415
G01 X18.0817 Y5.1436
G01 X18.0710 Y5.1465
G01 X18.0553 Y5.1488
G01 X18.0442 Y5.1491
G01 X18.0381 Y5.1488
G01 X18.0223 Y5.1465
G01 X18.0117 Y5.1436
G01 X18.0059 Y5.1415
G01 X17.9915 Y5.1347
G01 X17.9822 Y5.1288
G01 X17.9773 Y5.1252
G01 X17.9671 Y5.1163
G01 X17.8787 Y5.0279
G01 X17.8729 Y5.0215
G01 X17.8662 Y5.0128
G01 X17.8580 Y4.9992
G01 X17.8535 Y4.9891
G01 X17.8500 Y4.9786
G01 X17.8475 Y4.9678
G01 X17.8462 Y4.9569
G01 X17.8459 Y4.9459
G01 X17.8466 Y4.9349
G00 Z2.0000
G00 X18.2002 Y5.2884
G01 F60.00
G01 Z-0.020
G01 F120.00
G01 X18.2021 Y5.2775
G01 X18.2035 Y5.2716
G01 X18.2070 Y5.2611
G01 X18.2115 Y5.2510
G01 X18.2197 Y5.2374
G01 X18.2265 Y5.2286
G01 X18.2323 Y5.2223
G01 X18.7450 Y4.7097
G01 X18.7551 Y4.7007
G01 X18.7600 Y4.6971
G01 X18.7693 Y4.6912
G01 X18.7837 Y4.6844
G01 X18.7942 Y4.6809
G01 X18.8002 Y4.6794
G01 X18.8110 Y4.6776
G01 X18.8270 Y4.6768
G01 X18.8380 Y4.6776
G01 X18.8488 Y4.6794
G01 X18.8548 Y4.6809
G01 X18.8653 Y4.6844
G01 X18.8797 Y4.6912
G01 X18.8890 Y4.6971
G01 X18.8939 Y4.7007
G01 X18.9023 Y4.7080
G01 X18.9924 Y4.7981
G01 X19.0014 Y4.8082
G01 X19.0050 Y4.8131
G01 X19.0109 Y4.8224
G01 X19.0177 Y4.8368
G01 X19.0198 Y4.8426
G01 X19.0227 Y4.8533
G01 X19.0246 Y4.8641
G01 X19.0253 Y4.8751
G01 X19.0246 Y4.8911
G01 X19.0227 Y4.9019
G01 X19.0212 Y4.9079
G01 X19.0158 Y4.9229
G01 X19.0109 Y4.9328
G01 X19.0077 Y4.9380
G01 X18.9983 Y4.9508
G01 X18.9924 Y4.9572
G01 X18.4798 Y5.4698
G01 X18.4697 Y5.4787
G01 X18.4647 Y5.4824
G01 X18.4554 Y5.4883
G01 X18.4410 Y5.4951
G01 X18.4352 Y5.4971
G01 X18.4246 Y5.5001
G01 X18.4088 Y5.5024
G01 X18.3978 Y5.5027
G01 X18.3917 Y5.5024
G01 X18.3759 Y5.5001
G01 X18.3652 Y5.4971
G01 X18.3595 Y5.4951
G01 X18.3451 Y5.4883
G01 X18.3357 Y5.4824
G01 X18.3308 Y5.4787
G01 X18.3207 Y5.4698
G01 X18.2323 Y5.3814
G01 X18.2265 Y5.3751
G01 X18.2197 Y5.3664
G01 X18.2115 Y5.3527
G01 X18.2070 Y5.3426
G01 X18.2035 Y5.3322
G01 X18.2011 Y5.3214
G01 X18.1997 Y5.3104
G01 X18.1994 Y5.2994
G01 X18.2002 Y5.2884
G00 Z2.0000
G00 X18.5537 Y5.6420
G01 F60.00
G01 Z-0.020
G01 F120.00
G01 X18.5556 Y5.6311
G01 X18.5571 Y5.6251
G01 X18.5606 Y5.6147
G01 X18.5651 Y5.6046
G01 X18.5733 Y5.5909
G01 X18.5800 Y5.5822
G01 X18.5859 Y5.5759
G01 X19.0985 Y5.0632
G01 X19.1086 Y5.0543
G01 X19.1136 Y5.0506
G01 X19.1229 Y5.0448
G01 X19.1373 Y5.0379
G01 X19.1478 Y5.0345
G01 X19.1537 Y5.0330
G01 X19.1646 Y5.0311
G01 X19.1805 Y5.0303
G01 X19.1915 Y5.0311
G01 X19.2024 Y5.0330
G01 X19.2083 Y5.0345
G01 X19.2188 Y5.0379
G01 X19.2332 Y5.0448
G01 X19.2426 Y5.0506
G01 X19.2475 Y5.0543
G01 X19.2558 Y5.0615
G01 X19.3460 Y5.1516
G01 X19.3549 Y5.1617
G01 X19.3586 Y5.1666
G01 X19.3645 Y5.1760
G01 X19.3713 Y5.1904
G01 X19.3733 Y5.1962
G01 X19.3762 Y5.2068
G01 X19.3781 Y5.2177
G01 X19.3789 Y5.2287
G01 X19.3781 Y5.2446
G01 X19.3762 Y5.2555
G01 X19.3748 Y5.2614
G01 X19.3694 Y5.2764
G01 X19.3645 Y5.2863
G01 X19.3613 Y5.2916
G01 X19.3518 Y5.3044
G01 X19.3460 Y5.3107
G01 X18.8333 Y5.8234
G01 X18.8232 Y5.8323
G01 X18.8183 Y5.8359
G01 X18.8090 Y5.8418
G01 X18.7946 Y5.8486
G01 X18.7888 Y5.8507
G01 X18.7781 Y5.8536
G01 X18.7624 Y5.8559
G01 X18.7513 Y5.8562
G01 X18.7452 Y5.8559
G01 X18.7295 Y5.8536
G01 X18.7188 Y5.8507
G01 X18.7130 Y5.8486
G01 X18.6986 Y5.8418
G01 X18.6893 Y5.8359
G01 X18.6844 Y5.8323
G01 X18.6742 Y5.8234
G01 X18.5859 Y5.7350
G01 X18.5800 Y5.7286
G01 X18.5733 Y5.7199
G01 X18.5651 Y5.7063
G01 X18.5606 Y5.6962
G01 X18.5571 Y5.6857
G01 X18.5546 Y5.6749
G01 X18.5533 Y5.6640
G01 X18.5530 Y5.6530
G01 X18.5537 Y5.6420
G00 Z2.0000
G00 X20.2154 Y4.8641
G01 F60.00
G01 Z-0.020
G01 F120.00
G01 X20.2173 Y4.8533
G01 X20.2188 Y4.8473
G01 X20.2242 Y4.8323
G01 X20.2291 Y4.8224
G01 X20.2323 Y4.8172
G01 X20.2417 Y4.8044
G01 X20.2476 Y4.7981
G01 X20.3359 Y4.7097
G01 X20.3461 Y4.7007
G01 X20.3551 Y4.6944
G01 X20.3603 Y4.6912
G01 X20.3702 Y4.6863
G01 X20.3852 Y4.6809
G01 X20.3912 Y4.6794
G01 X20.4020 Y4.6776
G01 X20.4179 Y4.6768
G01 X20.4290 Y4.6776
G01 X20.4398 Y4.6794
G01 X20.4458 Y4.6809
G01 X20.4608 Y4.6863
G01 X20.4707 Y4.6912
G01 X20.4759 Y4.6944
G01 X20.4849 Y4.7007
G01 X20.4950 Y4.7097
G01 X21.0077 Y5.2223
G01 X21.0166 Y5.2324
G01 X21.0203 Y5.2374
G01 X21.0262 Y5.2467
G01 X21.0330 Y5.2611
G01 X21.0350 Y5.2669
G01 X21.0379 Y5.2775
G01 X21.0403 Y5.2933
G01 X21.0406 Y5.3043
G01 X21.0403 Y5.3104
G01 X21.0389 Y5.3214
G01 X21.0365 Y5.3322
G01 X21.0311 Y5.3472
G01 X21.0262 Y5.3570
G01 X21.0230 Y5.3623
G01 X21.0166 Y5.3713
G01 X21.0077 Y5.3814
G01 X20.9193 Y5.4698
G01 X20.9130 Y5.4756
G01 X20.9043 Y5.4824
G01 X20.8906 Y5.4906
G01 X20.8805 Y5.4951
G01 X20.8748 Y5.4971
G01 X20.8641 Y5.5001
G01 X20.8483 Y5.5024
G01 X20.8373 Y5.5027
G01 X20.8263 Y5.5019
G01 X20.8154 Y5.5001
G01 X20.8095 Y5.4986
G01 X20.7945 Y5.4932
G01 X20.7846 Y5.4883
G01 X20.7793 Y5.4851
G01 X20.7703 Y5.4787
G01 X20.7602 Y5.4698
G01 X20.2459 Y4.9554
G01 X20.2386 Y4.9470
G01 X20.2323 Y4.9380
G01 X20.2268 Y4.9284
G01 X20.2223 Y4.9184
G01 X20.2202 Y4.9126
G01 X20.2173 Y4.9019
G01 X20.2154 Y4.8911
G01 X20.2147 Y4.8751
G01 X20.2154 Y4.8641
G00 Z2.0000
G00 X20.5690 Y4.5106
G01 F60.00
G01 Z-0.020
G01 F120.00
G01 X20.5709 Y4.4997
G01 X20.5723 Y4.4938
G01 X20.5777 Y4.4788
G01 X20.5827 Y4.4689
G01 X20.5858 Y4.4636
G01 X20.5953 Y4.4508
G01 X20.6011 Y4.4445
G01 X20.6895 Y4.3561
G01 X20.6996 Y4.3472
G01 X20.7086 Y4.3408
G01 X20.7139 Y4.3377
G01 X20.7238 Y4.3327
G01 X20.7388 Y4.3273
G01 X20.7447 Y4.3259
G01 X20.7556 Y4.3240
G01 X20.7715 Y4.3232
G01 X20.7825 Y4.3240
G01 X20.7934 Y4.3259
G01 X20.7993 Y4.3273
G01 X20.8143 Y4.3327
G01 X20.8242 Y4.3377
G01 X20.8295 Y4.3408
G01 X20.8385 Y4.3472
G01 X20.8486 Y4.3561
G01 X21.3613 Y4.8688
G01 X21.3702 Y4.8789
G01 X21.3738 Y4.8838
G01 X21.3797 Y4.8931
G01 X21.3865 Y4.9075
G01 X21.3886 Y4.9133
G01 X21.3915 Y4.9240
G01 X21.3938 Y4.9397
G01 X21.3941 Y4.9508
G01 X21.3938 Y4.9569
G01 X21.3925 Y4.9678
G01 X21.3900 Y4.9786
G01 X21.3846 Y4.9936
G01 X21.3797 Y5.0035
G01 X21.3766 Y5.0087
G01 X21.3702 Y5.0177
G01 X21.3613 Y5.0279
G01 X21.2729 Y5.1163
G01 X21.2665 Y5.1221
G01 X21.2578 Y5.1288
G01 X21.2442 Y5.1370
G01 X21.2341 Y5.1415
G01 X21.2283 Y5.1436
G01 X21.2177 Y5.1465
G01 X21.2019 Y5.1488
G01 X21.1909 Y5.1491
G01 X21.1799 Y5.1484
G01 X21.1690 Y5.1465
G01 X21.1630 Y5.1450
G01 X21.1480 Y5.1396
G01 X21.1381 Y5.1347
G01 X21.1329 Y5.1316
G01 X21.1239 Y5.1252
G01 X21.1138 Y5.1163
G01 X20.5994 Y4.6018
G01 X20.5922 Y4.5935
G01 X20.5858 Y4.5845
G01 X20.5803 Y4.5749
G01 X20.5758 Y4.5648
G01 X20.5738 Y4.5590
G01 X20.5709 Y4.5484
G01 X20.5690 Y4.5375
G01 X20.5682 Y4.5216
G01 X20.5690 Y4.5106
G00 Z2.0000
G00 X20.9226 Y4.1570
G01 F60.00
G01 Z-0.020
G01 F120.00
G01 X20.9244 Y4.1462
G01 X20.9259 Y4.1402
G01 X20.9294 Y4.1297
G01 X20.9362 Y4.1153
G01 X20.9421 Y4.1060
G01 X20.9457 Y4.1011
G01 X20.9547 Y4.0909
G01 X21.0431 Y4.0026
G01 X21.0532 Y3.9936
G01 X21.0581 Y3.9900
G01 X21.0674 Y3.9841
G01 X21.0818 Y3.9773
G01 X21.0923 Y3.9738
G01 X21.0983 Y3.9723
G01 X21.1091 Y3.9704
G01 X21.1251 Y3.9697
G01 X21.1361 Y3.9704
G01 X21.1469 Y3.9723
G01 X21.1529 Y3.9738
G01 X21.1634 Y3.9773
G01 X21.1734 Y3.9818
G01 X21.1830 Y3.9873
G01 X21.1920 Y3.9936
G01 X21.2022 Y4.0026
G01 X21.6297 Y4.4301
G01 X21.6428 Y4.4320
G01 X21.6595 Y4.4359
G01 X21.6803 Y4.4433
G01 X21.6914 Y4.4486
G01 X21.7063 Y4.4572
G01 X21.7202 Y4.4672
G01 X21.7331 Y4.4786
G01 X22.1116 Y4.8571
G01 X22.1330 Y4.8541
G01 X22.1600 Y4.8529
G01 X22.6455 Y4.8529
G01 X22.6725 Y4.8541
G01 X22.7064 Y4.8592
G01 X22.7350 Y4.8666
G01 X22.7581 Y4.8748
G01 X22.7848 Y4.8872
G01 X22.8142 Y4.9049
G01 X22.8378 Y4.9226
G01 X22.8577 Y4.9408
G01 X24.4105 Y6.4936
G01 X24.4117 Y6.4732
G01 X24.4163 Y6.4441
G01 X24.4237 Y6.4156
G01 X24.4338 Y6.3880
G01 X24.4466 Y6.3614
G01 X24.4620 Y6.3363
G01 X24.4797 Y6.3128
G01 X24.4962 Y6.2946
G01 X24.5216 Y6.2716
G01 X24.5454 Y6.2542
G01 X24.5708 Y6.2393
G01 X24.5975 Y6.2270
G01 X24.6206 Y6.2187
G01 X24.6491 Y6.2113
G01 X24.6782 Y6.2067
G01 X24.7100 Y6.2050
G01 X25.9625 Y6.2051
G01 X25.9918 Y6.2067
G01 X26.0161 Y6.2103
G01 X26.0494 Y6.2187
G01 X26.0770 Y6.2288
G01 X26.1036 Y6.2416
G01 X26.1246 Y6.2542
G01 X26.1522 Y6.2747
G01 X26.1738 Y6.2946
G01 X26.1934 Y6.3166
G01 X26.2108 Y6.3404
G01 X26.2234 Y6.3614
G01 X26.2362 Y6.3880
G01 X26.2463 Y6.4156
G01 X26.2547 Y6.4489
G01 X26.2587 Y6.4780
G01 X26.2600 Y6.5050
G01 X26.2599 Y7.4325
G01 X26.2583 Y7.4618
G01 X26.2547 Y7.4861
G01 X26.2463 Y7.5194
G01 X26.2362 Y7.5470
G01 X26.2234 Y7.5736
G01 X26.2108 Y7.5946
G01 X26.1903 Y7.6222
G01 X26.1704 Y7.6438
G01 X26.1484 Y7.6634
G01 X26.1246 Y7.6808
G01 X26.1036 Y7.6934
G01 X26.0770 Y7.7062
G01 X26.0494 Y7.7163
G01 X26.0161 Y7.7247
G01 X25.9870 Y7.7287
G01 X25.9600 Y7.7300
G01 X24.7075 Y7.7299
G01 X24.6782 Y7.7283
G01 X24.6539 Y7.7247
G01 X24.6206 Y7.7163
G01 X24.5930 Y7.7062
G01 X24.5664 Y7.6934
G01 X24.5454 Y7.6808
G01 X24.5216 Y7.6634
G01 X24.4996 Y7.6438
G01 X24.4766 Y7.6184
G01 X24.4592 Y7.5946
G01 X24.4443 Y7.5692
G01 X24.4320 Y7.5425
G01 X24.4237 Y7.5194
G01 X24.4153 Y7.4861
G01 X24.4113 Y7.4570
G01 X24.4100 Y7.4300
G01 X24.4100 Y7.2632
G01 X24.3991 Y7.2613
G01 X24.3705 Y7.2539
G01 X24.3474 Y7.2457
G01 X24.3207 Y7.2333
G01 X24.2913 Y7.2156
G01 X24.2677 Y7.1979
G01 X24.2478 Y7.1797
G01 X22.5212 Y5.4531
G01 X22.1600 Y5.4531
G01 X22.1281 Y5.4514
G01 X22.1039 Y5.4478
G01 X22.0752 Y5.4409
G01 X22.0429 Y5.4293
G01 X22.0207 Y5.4188
G01 X21.9953 Y5.4039
G01 X21.9677 Y5.3834
G01 X21.9461 Y5.3634
G01 X21.9296 Y5.3453
G01 X21.9119 Y5.3217
G01 X21.8942 Y5.2923
G01 X21.8818 Y5.2656
G01 X21.8736 Y5.2425
G01 X21.8662 Y5.2139
G01 X21.8616 Y5.1849
G01 X21.8599 Y5.1505
G01 X21.8611 Y5.1260
G01 X21.8641 Y5.1047
G01 X21.5545 Y4.7953
G01 X21.5444 Y4.7956
G01 X21.5383 Y4.7953
G01 X21.5225 Y4.7929
G01 X21.5119 Y4.7900
G01 X21.5061 Y4.7880
G01 X21.4960 Y4.7835
G01 X21.4884 Y4.7791
G01 X21.4708 Y4.7785
G01 X21.4538 Y4.7762
G01 X21.4323 Y4.7708
G01 X21.4208 Y4.7667
G01 X21.4052 Y4.7596
G01 X21.3903 Y4.7510
G01 X21.3726 Y4.7378
G01 X21.3600 Y4.7261
G01 X21.3487 Y4.7132
G01 X21.3386 Y4.6993
G01 X21.3300 Y4.6844
G01 X21.3229 Y4.6688
G01 X21.3173 Y4.6525
G01 X21.3134 Y4.6358
G01 X21.3111 Y4.6188
G01 X21.3105 Y4.6059
G01 X20.9547 Y4.2500
G01 X20.9489 Y4.2437
G01 X20.9421 Y4.2350
G01 X20.9362 Y4.2257
G01 X20.9294 Y4.2113
G01 X20.9259 Y4.2008
G01 X20.9235 Y4.1900
G01 X20.9221 Y4.1791
G01 X20.9218 Y4.1680
G01 X20.9226 Y4.1570
G00 Z2.0000
G00 X21.2761 Y2.9196
G01 F60.00
G01 Z-0.020
G01 F120.00
G01 X21.2780 Y2.9087
G01 X21.2795 Y2.9028
G01 X21.2829 Y2.8923
G01 X21.2874 Y2.8822
G01 X21.2956 Y2.8686
G01 X21.3024 Y2.8598
G01 X21.3082 Y2.8535
G01 X21.8209 Y2.3409
G01 X21.8310 Y2.3319
G01 X21.8359 Y2.3283
G01 X21.8453 Y2.3224
G01 X21.8597 Y2.3156
G01 X21.8701 Y2.3121
G01 X21.8761 Y2.3106
G01 X21.8870 Y2.3087
G01 X21.9029 Y2.3080
G01 X21.9139 Y2.3087
G01 X21.9248 Y2.3106
G01 X21.9307 Y2.3121
G01 X21.9412 Y2.3156
G01 X21.9556 Y2.3224
G01 X21.9649 Y2.3283
G01 X21.9699 Y2.3319
G01 X21.9782 Y2.3392
G01 X22.0684 Y2.4292
G01 X22.0773 Y2.4394
G01 X22.0809 Y2.4443
G01 X22.0868 Y2.4536
G01 X22.0936 Y2.4680
G01 X22.0957 Y2.4738
G01 X22.0986 Y2.4845
G01 X22.1005 Y2.4953
G01 X22.1012 Y2.5063
G01 X22.1005 Y2.5223
G01 X22.0986 Y2.5331
G01 X22.0971 Y2.5391
G01 X22.0917 Y2.5541
G01 X22.0868 Y2.5640
G01 X22.0837 Y2.5692
G01 X22.0742 Y2.5820
G01 X22.0684 Y2.5883
G01 X21.5557 Y3.1010
G01 X21.5456 Y3.1099
G01 X21.5407 Y3.1136
G01 X21.5313 Y3.1195
G01 X21.5169 Y3.1263
G01 X21.5111 Y3.1283
G01 X21.5005 Y3.1312
G01 X21.4847 Y3.1336
G01 X21.4737 Y3.1339
G01 X21.4676 Y3.1336
G01 X21.4518 Y3.1312
G01 X21.4412 Y3.1283
G01 X21.4354 Y3.1263
G01 X21.4210 Y3.1195
G01 X21.4116 Y3.1136
G01 X21.4067 Y3.1099
G01 X21.3966 Y3.1010
G01 X21.3082 Y3.0126
G01 X21.3024 Y3.0063
G01 X21.2956 Y2.9976
G01 X21.2874 Y2.9839
G01 X21.2829 Y2.9738
G01 X21.2795 Y2.9633
G01 X21.2770 Y2.9526
G01 X21.2756 Y2.9416
G01 X21.2753 Y2.9306
G01 X21.2761 Y2.9196
G00 Z2.0000
G00 X20.9226 Y2.5660
G01 F60.00
G01 Z-0.020
G01 F120.00
G01 X20.9244 Y2.5552
G01 X20.9259 Y2.5492
G01 X20.9294 Y2.5387
G01 X20.9339 Y2.5287
G01 X20.9421 Y2.5150
G01 X20.9489 Y2.5063
G01 X20.9547 Y2.5000
G01 X21.4673 Y1.9873
G01 X21.4774 Y1.9784
G01 X21.4824 Y1.9747
G01 X21.4917 Y1.9688
G01 X21.5061 Y1.9620
G01 X21.5166 Y1.9585
G01 X21.5225 Y1.9571
G01 X21.5334 Y1.9552
G01 X21.5493 Y1.9544
G01 X21.5603 Y1.9552
G01 X21.5712 Y1.9571
G01 X21.5772 Y1.9585
G01 X21.5876 Y1.9620
G01 X21.6020 Y1.9688
G01 X21.6114 Y1.9747
G01 X21.6163 Y1.9784
G01 X21.6246 Y1.9856
G01 X21.7148 Y2.0757
G01 X21.7237 Y2.0858
G01 X21.7274 Y2.0907
G01 X21.7333 Y2.1001
G01 X21.7401 Y2.1145
G01 X21.7421 Y2.1202
G01 X21.7451 Y2.1309
G01 X21.7469 Y2.1418
G01 X21.7477 Y2.1528
G01 X21.7469 Y2.1687
G01 X21.7451 Y2.1796
G01 X21.7436 Y2.1855
G01 X21.7382 Y2.2005
G01 X21.7333 Y2.2104
G01 X21.7301 Y2.2157
G01 X21.7206 Y2.2285
G01 X21.7148 Y2.2348
G01 X21.2022 Y2.7474
G01 X21.1920 Y2.7564
G01 X21.1871 Y2.7600
G01 X21.1778 Y2.7659
G01 X21.1634 Y2.7727
G01 X21.1576 Y2.7748
G01 X21.1469 Y2.7777
G01 X21.1312 Y2.7800
G01 X21.1201 Y2.7803
G01 X21.1140 Y2.7800
G01 X21.0983 Y2.7777
G01 X21.0876 Y2.7748
G01 X21.0818 Y2.7727
G01 X21.0674 Y2.7659
G01 X21.0581 Y2.7600
G01 X21.0532 Y2.7564
G01 X21.0431 Y2.7474
G01 X20.9547 Y2.6591
G01 X20.9489 Y2.6527
G01 X20.9421 Y2.6440
G01 X20.9339 Y2.6303
G01 X20.9294 Y2.6203
G01 X20.9259 Y2.6098
G01 X20.9235 Y2.5990
G01 X20.9221 Y2.5881
G01 X20.9218 Y2.5771
G01 X20.9226 Y2.5660
G00 Z2.0000
G00 X20.5690 Y2.2125
G01 F60.00
G01 Z-0.020
G01 F120.00
G01 X20.5709 Y2.2016
G01 X20.5723 Y2.1957
G01 X20.5758 Y2.1852
G01 X20.5803 Y2.1751
G01 X20.5885 Y2.1614
G01 X20.5953 Y2.1527
G01 X20.6011 Y2.1464
G01 X21.7577 Y0.9897
G01 X21.7499 Y0.9355
G01 X21.7451 Y0.8375
G01 X21.7499 Y0.7345
G01 X21.7648 Y0.6326
G01 X21.7896 Y0.5326
G01 X21.8240 Y0.4355
G01 X21.8679 Y0.3422
G01 X21.9234 Y0.2496
G01 X21.9849 Y0.1670
G01 X22.0543 Y0.0908
G01 X22.1308 Y0.0218
G01 X22.2137 Y-0.0394
G01 X22.3022 Y-0.0921
G01 X22.3955 Y-0.1360
G01 X22.4926 Y-0.1704
G01 X22.5926 Y-0.1952
G01 X22.6945 Y-0.2101
G01 X22.7975 Y-0.2149
G01 X22.8955 Y-0.2101
G01 X23.0022 Y-0.1943
G01 X23.1021 Y-0.1690
G01 X23.1945 Y-0.1360
G01 X23.2921 Y-0.0898
G01 X23.3804 Y-0.0366
G01 X23.4592 Y0.0218
G01 X23.5392 Y0.0943
G01 X23.6082 Y0.1708
G01 X23.6666 Y0.2496
G01 X23.7221 Y0.3422
G01 X23.7660 Y0.4355
G01 X23.7990 Y0.5279
G01 X23.8252 Y0.6326
G01 X23.8396 Y0.7296
G01 X23.8449 Y0.8325
G01 X23.8396 Y0.9404
G01 X23.8252 Y1.0374
G01 X23.8004 Y1.1374
G01 X23.7641 Y1.2391
G01 X23.7221 Y1.3278
G01 X23.6694 Y1.4163
G01 X23.6082 Y1.4992
G01 X23.5806 Y1.5300
G01 X23.8528 Y1.2578
G01 X23.8765 Y1.2365
G01 X23.8963 Y1.2219
G01 X23.9214 Y1.2065
G01 X23.9524 Y1.1918
G01 X23.9755 Y1.1836
G01 X24.0041 Y1.1762
G01 X24.0380 Y1.1711
G01 X24.0650 Y1.1699
G01 X28.5100 Y1.1699
G01 X28.5370 Y1.1711
G01 X28.5661 Y1.1752
G01 X28.5995 Y1.1836
G01 X28.6226 Y1.1918
G01 X28.6493 Y1.2042
G01 X28.6747 Y1.2191
G01 X28.6985 Y1.2365
G01 X28.7222 Y1.2578
G01 X29.0299 Y1.5655
G01 X29.5406 Y1.5655
G01 X29.5724 Y1.5672
G01 X29.5967 Y1.5708
G01 X29.6253 Y1.5777
G01 X29.6577 Y1.5893
G01 X29.6799 Y1.5998
G01 X29.7053 Y1.6147
G01 X29.7328 Y1.6352
G01 X29.7528 Y1.6534
G01 X30.2097 Y2.1103
G01 X30.2279 Y2.1302
G01 X30.2456 Y2.1538
G01 X30.2610 Y2.1789
G01 X30.2738 Y2.2054
G01 X30.2839 Y2.2330
G01 X30.2923 Y2.2664
G01 X30.2959 Y2.2906
G01 X30.2976 Y2.3200
G01 X30.2976 Y2.4500
G01 X30.4600 Y2.4500
G01 X30.4918 Y2.4517
G01 X30.5209 Y2.4563
G01 X30.5494 Y2.4637
G01 X30.5770 Y2.4738
G01 X30.6036 Y2.4866
G01 X30.6287 Y2.5020
G01 X30.6522 Y2.5197
G01 X30.6704 Y2.5362
G01 X30.6903 Y2.5578
G01 X30.7108 Y2.5854
G01 X30.7234 Y2.6064
G01 X30.7362 Y2.6330
G01 X30.7463 Y2.6606
G01 X30.7547 Y2.6939
G01 X30.7587 Y2.7230
G01 X30.7600 Y2.7500
G01 X30.7600 Y4.0000
G01 X30.7583 Y4.0318
G01 X30.7547 Y4.0561
G01 X30.7477 Y4.0847
G01 X30.7380 Y4.1125
G01 X30.7257 Y4.1392
G01 X30.7080 Y4.1687
G01 X30.6903 Y4.1922
G01 X30.6704 Y4.2138
G01 X30.6484 Y4.2334
G01 X30.6246 Y4.2508
G01 X30.5992 Y4.2657
G01 X30.5725 Y4.2780
G01 X30.5494 Y4.2863
G01 X30.5209 Y4.2937
G01 X30.4918 Y4.2983
G01 X30.4600 Y4.3000
G01 X30.2976 Y4.3000
G01 X30.2976 Y8.5240
G01 X31.0589 Y9.2852
G01 X33.9078 Y9.2852
G01 X33.9397 Y9.2870
G01 X33.9640 Y9.2906
G01 X33.9926 Y9.2975
G01 X34.0249 Y9.3091
G01 X34.0471 Y9.3195
G01 X34.0725 Y9.3345
G01 X34.0963 Y9.3518
G01 X34.1201 Y9.3731
G01 X35.2914 Y10.5446
G01 X35.3079 Y10.5627
G01 X35.3256 Y10.5863
G01 X35.3433 Y10.6157
G01 X35.3557 Y10.6424
G01 X35.3639 Y10.6655
G01 X35.3713 Y10.6941
G01 X35.3732 Y10.7050
G01 X35.5425 Y10.7051
G01 X35.5718 Y10.7067
G01 X35.6009 Y10.7113
G01 X35.6294 Y10.7187
G01 X35.6525 Y10.7270
G01 X35.6836 Y10.7416
G01 X35.7046 Y10.7542
G01 X35.7284 Y10.7716
G01 X35.7538 Y10.7946
G01 X35.7703 Y10.8128
G01 X35.7880 Y10.8363
G01 X35.8057 Y10.8658
G01 X35.8180 Y10.8925
G01 X35.8263 Y10.9156
G01 X35.8347 Y10.9489
G01 X35.8387 Y10.9780
G01 X35.8400 Y11.0050
G01 X35.8400 Y11.3343
G01 X35.8509 Y11.3362
G01 X35.8795 Y11.3436
G01 X35.9026 Y11.3518
G01 X35.9293 Y11.3642
G01 X35.9587 Y11.3819
G01 X35.9823 Y11.3996
G01 X36.0022 Y11.4178
G01 X38.2472 Y13.6628
G01 X38.2654 Y13.6827
G01 X38.2859 Y13.7103
G01 X38.3008 Y13.7357
G01 X38.3132 Y13.7624
G01 X38.3229 Y13.7902
G01 X38.3298 Y13.8189
G01 X38.3339 Y13.8480
G01 X38.3351 Y13.8750
G01 X38.3351 Y17.0000
G01 X38.6625 Y17.0001
G01 X38.6918 Y17.0017
G01 X38.7161 Y17.0053
G01 X38.7494 Y17.0137
G01 X38.7770 Y17.0238
G01 X38.8036 Y17.0366
G01 X38.8246 Y17.0492
G01 X38.8484 Y17.0666
G01 X38.8704 Y17.0862
G01 X38.8903 Y17.1078
G01 X38.9080 Y17.1313
G01 X38.9257 Y17.1608
G01 X38.9380 Y17.1875
G01 X38.9477 Y17.2153
G01 X38.9547 Y17.2439
G01 X38.9587 Y17.2730
G01 X38.9600 Y17.3000
G01 X38.9599 Y18.2275
G01 X38.9583 Y18.2568
G01 X38.9547 Y18.2811
G01 X38.9477 Y18.3097
G01 X38.9380 Y18.3375
G01 X38.9257 Y18.3642
G01 X38.9108 Y18.3896
G01 X38.8903 Y18.4172
G01 X38.8704 Y18.4388
G01 X38.8484 Y18.4584
G01 X38.8246 Y18.4758
G01 X38.7992 Y18.4907
G01 X38.7725 Y18.5030
G01 X38.7447 Y18.5127
G01 X38.7161 Y18.5197
G01 X38.6870 Y18.5237
G01 X38.6600 Y18.5250
G01 X37.4075 Y18.5249
G01 X37.3782 Y18.5233
G01 X37.3539 Y18.5197
G01 X37.3206 Y18.5113
G01 X37.2930 Y18.5012
G01 X37.2664 Y18.4884
G01 X37.2454 Y18.4758
G01 X37.2178 Y18.4553
G01 X37.1962 Y18.4354
G01 X37.1797 Y18.4172
G01 X37.1620 Y18.3937
G01 X37.1466 Y18.3686
G01 X37.1320 Y18.3375
G01 X37.1223 Y18.3097
G01 X37.1153 Y18.2811
G01 X37.1117 Y18.2568
G01 X37.1100 Y18.2250
G01 X37.1100 Y17.3000
G01 X37.1117 Y17.2682
G01 X37.1163 Y17.2391
G01 X37.1237 Y17.2106
G01 X37.1338 Y17.1830
G01 X37.1466 Y17.1564
G01 X37.1620 Y17.1313
G01 X37.1797 Y17.1078
G01 X37.1996 Y17.0862
G01 X37.2216 Y17.0666
G01 X37.2454 Y17.0492
G01 X37.2664 Y17.0366
G01 X37.2930 Y17.0238
G01 X37.3206 Y17.0137
G01 X37.3539 Y17.0053
G01 X37.3782 Y17.0017
G01 X37.4075 Y17.0001
G01 X37.7349 Y17.0000
G01 X37.7349 Y13.9993
G01 X35.8400 Y12.1044
G01 X35.8400 Y12.2550
G01 X35.8383 Y12.2868
G01 X35.8337 Y12.3159
G01 X35.8263 Y12.3444
G01 X35.8180 Y12.3675
G01 X35.8057 Y12.3942
G01 X35.7908 Y12.4196
G01 X35.7734 Y12.4434
G01 X35.7538 Y12.4654
G01 X35.7322 Y12.4853
G01 X35.7087 Y12.5030
G01 X35.6792 Y12.5207
G01 X35.6525 Y12.5330
G01 X35.6247 Y12.5427
G01 X35.5961 Y12.5497
G01 X35.5718 Y12.5533
G01 X35.5400 Y12.5550
G01 X34.6150 Y12.5550
G01 X34.5880 Y12.5537
G01 X34.5589 Y12.5497
G01 X34.5303 Y12.5427
G01 X34.4980 Y12.5312
G01 X34.4714 Y12.5184
G01 X34.4463 Y12.5030
G01 X34.4228 Y12.4853
G01 X34.4012 Y12.4654
G01 X34.3847 Y12.4472
G01 X34.3670 Y12.4237
G01 X34.3516 Y12.3986
G01 X34.3388 Y12.3720
G01 X34.3273 Y12.3397
G01 X34.3203 Y12.3111
G01 X34.3163 Y12.2820
G01 X34.3150 Y12.2550
G01 X34.3150 Y11.0050
G01 X34.3167 Y10.9732
G01 X34.3213 Y10.9441
G01 X34.3287 Y10.9156
G01 X34.3370 Y10.8925
G01 X34.3493 Y10.8658
G01 X34.3642 Y10.8404
G01 X34.3816 Y10.8166
G01 X34.4046 Y10.7912
G01 X34.4228 Y10.7747
G01 X34.4463 Y10.7570
G01 X34.4714 Y10.7416
G01 X34.4980 Y10.7288
G01 X34.5256 Y10.7187
G01 X34.5541 Y10.7113
G01 X34.5832 Y10.7067
G01 X34.6036 Y10.7055
G01 X33.7835 Y9.8855
G01 X30.9346 Y9.8855
G01 X30.9076 Y9.8842
G01 X30.8784 Y9.8801
G01 X30.8498 Y9.8732
G01 X30.8220 Y9.8635
G01 X30.7953 Y9.8511
G01 X30.7699 Y9.8362
G01 X30.7461 Y9.8188
G01 X30.7223 Y9.7976
G01 X29.7853 Y8.8605
G01 X29.7640 Y8.8367
G01 X29.7494 Y8.8170
G01 X29.7340 Y8.7919
G01 X29.7212 Y8.7654
G01 X29.7096 Y8.7330
G01 X29.7027 Y8.7044
G01 X29.6991 Y8.6801
G01 X29.6974 Y8.6483
G01 X29.6974 Y4.3000
G01 X29.5350 Y4.3000
G01 X29.5080 Y4.2987
G01 X29.4789 Y4.2947
G01 X29.4503 Y4.2877
G01 X29.4225 Y4.2780
G01 X29.3958 Y4.2657
G01 X29.3704 Y4.2508
G01 X29.3428 Y4.2303
G01 X29.3212 Y4.2104
G01 X29.3047 Y4.1922
G01 X29.2870 Y4.1687
G01 X29.2716 Y4.1436
G01 X29.2570 Y4.1125
G01 X29.2473 Y4.0847
G01 X29.2403 Y4.0561
G01 X29.2367 Y4.0318
G01 X29.2351 Y4.0025
G01 X29.2350 Y2.7500
G01 X29.2367 Y2.7182
G01 X29.2403 Y2.6939
G01 X29.2473 Y2.6653
G01 X29.2570 Y2.6375
G01 X29.2693 Y2.6108
G01 X29.2870 Y2.5813
G01 X29.3047 Y2.5578
G01 X29.3246 Y2.5362
G01 X29.3466 Y2.5166
G01 X29.3704 Y2.4992
G01 X29.3958 Y2.4843
G01 X29.4225 Y2.4720
G01 X29.4456 Y2.4637
G01 X29.4741 Y2.4563
G01 X29.5032 Y2.4517
G01 X29.5350 Y2.4500
G01 X29.6974 Y2.4500
G01 X29.6974 Y2.4468
G01 X29.4163 Y2.1657
G01 X28.9031 Y2.1656
G01 X28.8786 Y2.1644
G01 X28.8494 Y2.1604
G01 X28.8208 Y2.1534
G01 X28.7930 Y2.1437
G01 X28.7663 Y2.1314
G01 X28.7409 Y2.1164
G01 X28.7171 Y2.0991
G01 X28.6951 Y2.0795
G01 X28.3857 Y1.7701
G01 X24.1893 Y1.7701
G01 X21.9884 Y3.9710
G01 X21.9884 Y4.0315
G01 X21.9871 Y4.0560
G01 X21.9842 Y4.0775
G01 X22.0684 Y4.1617
G01 X22.0773 Y4.1718
G01 X22.0837 Y4.1808
G01 X22.0891 Y4.1904
G01 X22.0936 Y4.2004
G01 X22.0957 Y4.2062
G01 X22.0986 Y4.2169
G01 X22.1005 Y4.2277
G01 X22.1012 Y4.2388
G01 X22.1009 Y4.2498
G01 X22.0996 Y4.2607
G01 X22.0971 Y4.2715
G01 X22.0917 Y4.2865
G01 X22.0868 Y4.2964
G01 X22.0837 Y4.3016
G01 X22.0773 Y4.3106
G01 X22.0684 Y4.3208
G01 X21.9782 Y4.4108
G01 X21.9699 Y4.4181
G01 X21.9608 Y4.4244
G01 X21.9513 Y4.4299
G01 X21.9412 Y4.4344
G01 X21.9354 Y4.4365
G01 X21.9248 Y4.4394
G01 X21.9139 Y4.4413
G01 X21.9029 Y4.4420
G01 X21.8870 Y4.4413
G01 X21.8761 Y4.4394
G01 X21.8701 Y4.4379
G01 X21.8597 Y4.4344
G01 X21.8496 Y4.4299
G01 X21.8359 Y4.4217
G01 X21.8272 Y4.4150
G01 X21.8209 Y4.4091
G01 X21.7367 Y4.3250
G01 X21.7153 Y4.3279
G01 X21.6907 Y4.3291
G01 X21.6564 Y4.3275
G01 X21.6273 Y4.3229
G01 X21.5988 Y4.3155
G01 X21.5757 Y4.3072
G01 X21.5490 Y4.2949
G01 X21.5195 Y4.2772
G01 X21.4998 Y4.2626
G01 X21.4778 Y4.2430
G01 X21.4579 Y4.2213
G01 X21.4402 Y4.1978
G01 X21.4225 Y4.1684
G01 X21.4101 Y4.1416
G01 X21.4004 Y4.1138
G01 X21.3935 Y4.0852
G01 X21.3894 Y4.0560
G01 X21.3882 Y4.0291
G01 X21.3882 Y3.9764
G01 X21.3082 Y3.8965
G01 X21.3024 Y3.8902
G01 X21.2929 Y3.8774
G01 X21.2874 Y3.8678
G01 X21.2829 Y3.8577
G01 X21.2795 Y3.8472
G01 X21.2770 Y3.8365
G01 X21.2761 Y3.8304
G01 X21.2753 Y3.8194
G01 X21.2756 Y3.8084
G01 X21.2770 Y3.7974
G01 X21.2795 Y3.7867
G01 X21.2829 Y3.7762
G01 X21.2898 Y3.7618
G01 X21.2956 Y3.7524
G01 X21.2993 Y3.7475
G01 X21.3082 Y3.7374
G01 X21.3966 Y3.6490
G01 X21.4029 Y3.6432
G01 X21.4116 Y3.6364
G01 X21.4210 Y3.6305
G01 X21.4309 Y3.6256
G01 X21.4412 Y3.6217
G01 X21.4518 Y3.6188
G01 X21.4627 Y3.6169
G01 X21.4737 Y3.6161
G01 X21.4847 Y3.6164
G01 X21.4931 Y3.6174
G01 X23.4900 Y1.6206
G01 X23.4592 Y1.6482
G01 X23.3804 Y1.7066
G01 X23.2921 Y1.7598
G01 X23.1945 Y1.8060
G01 X23.0974 Y1.8404
G01 X22.9974 Y1.8652
G01 X22.9004 Y1.8796
G01 X22.7975 Y1.8849
G01 X22.6945 Y1.8801
G01 X22.5926 Y1.8652
G01 X22.4926 Y1.8404
G01 X22.3955 Y1.8060
G01 X22.3022 Y1.7621
G01 X22.2096 Y1.7066
G01 X22.1270 Y1.6451
G01 X22.0508 Y1.5757
G01 X21.9818 Y1.4992
G01 X21.9234 Y1.4204
G01 X21.8853 Y1.3573
G01 X20.8486 Y2.3939
G01 X20.8385 Y2.4028
G01 X20.8295 Y2.4092
G01 X20.8242 Y2.4123
G01 X20.8143 Y2.4173
G01 X20.7993 Y2.4227
G01 X20.7886 Y2.4251
G01 X20.7776 Y2.4265
G01 X20.7666 Y2.4268
G01 X20.7605 Y2.4265
G01 X20.7447 Y2.4241
G01 X20.7341 Y2.4212
G01 X20.7283 Y2.4192
G01 X20.7139 Y2.4123
G01 X20.7045 Y2.4065
G01 X20.6996 Y2.4028
G01 X20.6895 Y2.3939
G01 X20.6011 Y2.3055
G01 X20.5953 Y2.2992
G01 X20.5885 Y2.2905
G01 X20.5803 Y2.2768
G01 X20.5758 Y2.2667
G01 X20.5723 Y2.2562
G01 X20.5699 Y2.2455
G01 X20.5685 Y2.2345
G01 X20.5682 Y2.2235
G01 X20.5690 Y2.2125
G00 Z2.0000
G00 X20.2154 Y1.8589
G01 F60.00
G01 Z-0.020
G01 F120.00
G01 X20.2173 Y1.8481
G01 X20.2188 Y1.8421
G01 X20.2223 Y1.8316
G01 X20.2268 Y1.8216
G01 X20.2350 Y1.8079
G01 X20.2417 Y1.7992
G01 X20.2476 Y1.7928
G01 X20.7602 Y1.2802
G01 X20.7703 Y1.2713
G01 X20.7753 Y1.2676
G01 X20.7846 Y1.2617
G01 X20.7990 Y1.2549
G01 X20.8095 Y1.2514
G01 X20.8154 Y1.2499
G01 X20.8263 Y1.2481
G01 X20.8422 Y1.2473
G01 X20.8532 Y1.2481
G01 X20.8641 Y1.2499
G01 X20.8700 Y1.2514
G01 X20.8805 Y1.2549
G01 X20.8949 Y1.2617
G01 X20.9043 Y1.2676
G01 X20.9092 Y1.2713
G01 X20.9175 Y1.2785
G01 X21.0077 Y1.3686
G01 X21.0166 Y1.3787
G01 X21.0203 Y1.3836
G01 X21.0262 Y1.3930
G01 X21.0330 Y1.4074
G01 X21.0350 Y1.4131
G01 X21.0379 Y1.4238
G01 X21.0398 Y1.4347
G01 X21.0406 Y1.4457
G01 X21.0398 Y1.4616
G01 X21.0379 Y1.4725
G01 X21.0365 Y1.4784
G01 X21.0311 Y1.4934
G01 X21.0262 Y1.5033
G01 X21.0230 Y1.5086
G01 X21.0135 Y1.5214
G01 X21.0077 Y1.5277
G01 X20.4950 Y2.0403
G01 X20.4849 Y2.0493
G01 X20.4800 Y2.0529
G01 X20.4707 Y2.0588
G01 X20.4563 Y2.0656
G01 X20.4505 Y2.0677
G01 X20.4398 Y2.0706
G01 X20.4241 Y2.0729
G01 X20.4130 Y2.0732
G01 X20.4069 Y2.0729
G01 X20.3912 Y2.0706
G01 X20.3805 Y2.0677
G01 X20.3747 Y2.0656
G01 X20.3603 Y2.0588
G01 X20.3510 Y2.0529
G01 X20.3461 Y2.0493
G01 X20.3359 Y2.0403
G01 X20.2476 Y1.9519
G01 X20.2417 Y1.9456
G01 X20.2350 Y1.9369
G01 X20.2268 Y1.9232
G01 X20.2223 Y1.9132
G01 X20.2188 Y1.9027
G01 X20.2163 Y1.8919
G01 X20.2150 Y1.8810
G01 X20.2147 Y1.8699
G01 X20.2154 Y1.8589
G00 Z2.0000
G00 X19.8619 Y1.5054
G01 F60.00
G01 Z-0.020
G01 F120.00
G01 X19.8638 Y1.4945
G01 X19.8652 Y1.4886
G01 X19.8687 Y1.4781
G01 X19.8732 Y1.4680
G01 X19.8814 Y1.4543
G01 X19.8882 Y1.4456
G01 X19.8940 Y1.4393
G01 X20.4067 Y0.9266
G01 X20.4168 Y0.9177
G01 X20.4217 Y0.9141
G01 X20.4310 Y0.9082
G01 X20.4454 Y0.9014
G01 X20.4559 Y0.8979
G01 X20.4619 Y0.8964
G01 X20.4727 Y0.8945
G01 X20.4887 Y0.8938
G01 X20.4997 Y0.8945
G01 X20.5105 Y0.8964
G01 X20.5165 Y0.8979
G01 X20.5270 Y0.9014
G01 X20.5414 Y0.9082
G01 X20.5507 Y0.9141
G01 X20.5556 Y0.9177
G01 X20.5640 Y0.9250
G01 X20.6541 Y1.0150
G01 X20.6631 Y1.0251
G01 X20.6667 Y1.0301
G01 X20.6726 Y1.0394
G01 X20.6794 Y1.0538
G01 X20.6815 Y1.0596
G01 X20.6844 Y1.0702
G01 X20.6863 Y1.0811
G01 X20.6870 Y1.0921
G01 X20.6863 Y1.1080
G01 X20.6844 Y1.1189
G01 X20.6829 Y1.1249
G01 X20.6775 Y1.1399
G01 X20.6726 Y1.1497
G01 X20.6694 Y1.1550
G01 X20.6600 Y1.1678
G01 X20.6541 Y1.1741
G01 X20.1415 Y1.6868
G01 X20.1314 Y1.6957
G01 X20.1264 Y1.6994
G01 X20.1171 Y1.7052
G01 X20.1027 Y1.7121
G01 X20.0969 Y1.7141
G01 X20.0863 Y1.7170
G01 X20.0705 Y1.7194
G01 X20.0595 Y1.7197
G01 X20.0534 Y1.7194
G01 X20.0376 Y1.7170
G01 X20.0269 Y1.7141
G01 X20.0212 Y1.7121
G01 X20.0068 Y1.7052
G01 X19.9974 Y1.6994
G01 X19.9925 Y1.6957
G01 X19.9824 Y1.6868
G01 X19.8940 Y1.5984
G01 X19.8882 Y1.5921
G01 X19.8814 Y1.5834
G01 X19.8732 Y1.5697
G01 X19.8687 Y1.5596
G01 X19.8652 Y1.5491
G01 X19.8628 Y1.5384
G01 X19.8614 Y1.5274
G01 X19.8611 Y1.5164
G01 X19.8619 Y1.5054
G00 Z2.0000
G00 X18.5537 Y1.0811
G01 F60.00
G01 Z-0.020
G01 F120.00
G01 X18.5556 Y1.0702
G01 X18.5571 Y1.0643
G01 X18.5625 Y1.0493
G01 X18.5674 Y1.0394
G01 X18.5706 Y1.0342
G01 X18.5800 Y1.0214
G01 X18.5859 Y1.0150
G01 X18.6742 Y0.9266
G01 X18.6844 Y0.9177
G01 X18.6934 Y0.9113
G01 X18.6986 Y0.9082
G01 X18.7085 Y0.9033
G01 X18.7235 Y0.8979
G01 X18.7295 Y0.8964
G01 X18.7403 Y0.8945
G01 X18.7562 Y0.8938
G01 X18.7673 Y0.8945
G01 X18.7781 Y0.8964
G01 X18.7841 Y0.8979
G01 X18.7991 Y0.9033
G01 X18.8090 Y0.9082
G01 X18.8142 Y0.9113
G01 X18.8232 Y0.9177
G01 X18.8333 Y0.9266
G01 X19.3460 Y1.4393
G01 X19.3549 Y1.4494
G01 X19.3586 Y1.4543
G01 X19.3645 Y1.4637
G01 X19.3713 Y1.4781
G01 X19.3733 Y1.4839
G01 X19.3762 Y1.4945
G01 X19.3786 Y1.5103
G01 X19.3789 Y1.5213
G01 X19.3786 Y1.5274
G01 X19.3772 Y1.5384
G01 X19.3748 Y1.5491
G01 X19.3694 Y1.5641
G01 X19.3645 Y1.5740
G01 X19.3613 Y1.5793
G01 X19.3549 Y1.5883
G01 X19.3460 Y1.5984
G01 X19.2576 Y1.6868
G01 X19.2513 Y1.6926
G01 X19.2426 Y1.6994
G01 X19.2289 Y1.7076
G01 X19.2188 Y1.7121
G01 X19.2131 Y1.7141
G01 X19.2024 Y1.7170
G01 X19.1866 Y1.7194
G01 X19.1756 Y1.7197
G01 X19.1646 Y1.7189
G01 X19.1537 Y1.7170
G01 X19.1478 Y1.7155
G01 X19.1328 Y1.7102
G01 X19.1229 Y1.7052
G01 X19.1176 Y1.7021
G01 X19.1086 Y1.6957
G01 X19.0985 Y1.6868
G01 X18.5842 Y1.1724
G01 X18.5769 Y1.1640
G01 X18.5706 Y1.1550
G01 X18.5651 Y1.1454
G01 X18.5606 Y1.1353
G01 X18.5585 Y1.1296
G01 X18.5556 Y1.1189
G01 X18.5537 Y1.1080
G01 X18.5530 Y1.0921
G01 X18.5537 Y1.0811
G00 Z2.0000
G00 X18.2002 Y1.4347
G01 F60.00
G01 Z-0.020
G01 F120.00
G01 X18.2021 Y1.4238
G01 X18.2035 Y1.4178
G01 X18.2089 Y1.4028
G01 X18.2138 Y1.3930
G01 X18.2170 Y1.3877
G01 X18.2265 Y1.3749
G01 X18.2323 Y1.3686
G01 X18.3207 Y1.2802
G01 X18.3308 Y1.2713
G01 X18.3398 Y1.2649
G01 X18.3451 Y1.2617
G01 X18.3549 Y1.2568
G01 X18.3700 Y1.2514
G01 X18.3759 Y1.2499
G01 X18.3868 Y1.2481
G01 X18.4027 Y1.2473
G01 X18.4137 Y1.2481
G01 X18.4246 Y1.2499
G01 X18.4305 Y1.2514
G01 X18.4455 Y1.2568
G01 X18.4554 Y1.2617
G01 X18.4607 Y1.2649
G01 X18.4697 Y1.2713
G01 X18.4798 Y1.2802
G01 X18.9924 Y1.7928
G01 X19.0014 Y1.8030
G01 X19.0050 Y1.8079
G01 X19.0109 Y1.8172
G01 X19.0177 Y1.8316
G01 X19.0198 Y1.8374
G01 X19.0227 Y1.8481
G01 X19.0250 Y1.8638
G01 X19.0253 Y1.8749
G01 X19.0250 Y1.8810
G01 X19.0237 Y1.8919
G01 X19.0212 Y1.9027
G01 X19.0158 Y1.9177
G01 X19.0109 Y1.9276
G01 X19.0077 Y1.9328
G01 X19.0014 Y1.9418
G01 X18.9924 Y1.9519
G01 X18.9041 Y2.0403
G01 X18.8977 Y2.0461
G01 X18.8890 Y2.0529
G01 X18.8753 Y2.0611
G01 X18.8653 Y2.0656
G01 X18.8595 Y2.0677
G01 X18.8488 Y2.0706
G01 X18.8331 Y2.0729
G01 X18.8221 Y2.0732
G01 X18.8110 Y2.0724
G01 X18.8002 Y2.0706
G01 X18.7942 Y2.0691
G01 X18.7792 Y2.0637
G01 X18.7693 Y2.0588
G01 X18.7641 Y2.0556
G01 X18.7551 Y2.0493
G01 X18.7450 Y2.0403
G01 X18.2306 Y1.5259
G01 X18.2234 Y1.5176
G01 X18.2170 Y1.5086
G01 X18.2115 Y1.4990
G01 X18.2070 Y1.4889
G01 X18.2050 Y1.4831
G01 X18.2021 Y1.4725
G01 X18.2002 Y1.4616
G01 X18.1994 Y1.4457
G01 X18.2002 Y1.4347
G00 Z2.0000
G00 X17.8466 Y1.7882
G01 F60.00
G01 Z-0.020
G01 F120.00
G01 X17.8485 Y1.7773
G01 X17.8500 Y1.7714
G01 X17.8554 Y1.7564
G01 X17.8603 Y1.7465
G01 X17.8634 Y1.7413
G01 X17.8729 Y1.7285
G01 X17.8787 Y1.7221
G01 X17.9671 Y1.6337
G01 X17.9773 Y1.6248
G01 X17.9863 Y1.6184
G01 X17.9915 Y1.6153
G01 X18.0014 Y1.6104
G01 X18.0164 Y1.6050
G01 X18.0223 Y1.6035
G01 X18.0332 Y1.6016
G01 X18.0491 Y1.6009
G01 X18.0601 Y1.6016
G01 X18.0710 Y1.6035
G01 X18.0770 Y1.6050
G01 X18.0920 Y1.6104
G01 X18.1019 Y1.6153
G01 X18.1071 Y1.6184
G01 X18.1161 Y1.6248
G01 X18.1262 Y1.6337
G01 X18.6389 Y2.1464
G01 X18.6478 Y2.1565
G01 X18.6515 Y2.1614
G01 X18.6573 Y2.1708
G01 X18.6642 Y2.1852
G01 X18.6662 Y2.1910
G01 X18.6691 Y2.2016
G01 X18.6715 Y2.2174
G01 X18.6718 Y2.2284
G01 X18.6715 Y2.2345
G01 X18.6701 Y2.2455
G01 X18.6677 Y2.2562
G01 X18.6623 Y2.2712
G01 X18.6573 Y2.2811
G01 X18.6542 Y2.2864
G01 X18.6478 Y2.2954
G01 X18.6389 Y2.3055
G01 X18.5505 Y2.3939
G01 X18.5442 Y2.3997
G01 X18.5355 Y2.4065
G01 X18.5218 Y2.4147
G01 X18.5117 Y2.4192
G01 X18.5059 Y2.4212
G01 X18.4953 Y2.4241
G01 X18.4795 Y2.4265
G01 X18.4685 Y2.4268
G01 X18.4575 Y2.4260
G01 X18.4466 Y2.4241
G01 X18.4407 Y2.4227
G01 X18.4257 Y2.4173
G01 X18.4158 Y2.4123
G01 X18.4105 Y2.4092
G01 X18.4015 Y2.4028
G01 X18.3914 Y2.3939
G01 X17.8771 Y1.8795
G01 X17.8698 Y1.8711
G01 X17.8634 Y1.8621
G01 X17.8580 Y1.8525
G01 X17.8535 Y1.8425
G01 X17.8514 Y1.8367
G01 X17.8485 Y1.8260
G01 X17.8466 Y1.8151
G01 X17.8459 Y1.7992
G01 X17.8466 Y1.7882
G00 Z2.0000
G00 X17.1395 Y2.4953
G01 F60.00
G01 Z-0.020
G01 F120.00
G01 X17.1414 Y2.4845
G01 X17.1429 Y2.4785
G01 X17.1483 Y2.4635
G01 X17.1532 Y2.4536
G01 X17.1563 Y2.4484
G01 X17.1658 Y2.4356
G01 X17.1716 Y2.4292
G01 X17.2600 Y2.3409
G01 X17.2701 Y2.3319
G01 X17.2792 Y2.3256
G01 X17.2844 Y2.3224
G01 X17.2943 Y2.3175
G01 X17.3093 Y2.3121
G01 X17.3152 Y2.3106
G01 X17.3261 Y2.3087
G01 X17.3420 Y2.3080
G01 X17.3530 Y2.3087
G01 X17.3639 Y2.3106
G01 X17.3699 Y2.3121
G01 X17.3849 Y2.3175
G01 X17.3947 Y2.3224
G01 X17.4000 Y2.3256
G01 X17.4090 Y2.3319
G01 X17.4191 Y2.3409
G01 X17.9318 Y2.8535
G01 X17.9407 Y2.8636
G01 X17.9444 Y2.8686
G01 X17.9502 Y2.8779
G01 X17.9571 Y2.8923
G01 X17.9591 Y2.8981
G01 X17.9620 Y2.9087
G01 X17.9644 Y2.9245
G01 X17.9647 Y2.9355
G01 X17.9644 Y2.9416
G01 X17.9630 Y2.9526
G01 X17.9605 Y2.9633
G01 X17.9552 Y2.9784
G01 X17.9502 Y2.9882
G01 X17.9471 Y2.9935
G01 X17.9407 Y3.0025
G01 X17.9318 Y3.0126
G01 X17.8434 Y3.1010
G01 X17.8371 Y3.1068
G01 X17.8284 Y3.1136
G01 X17.8147 Y3.1218
G01 X17.8046 Y3.1263
G01 X17.7988 Y3.1283
G01 X17.7882 Y3.1312
G01 X17.7724 Y3.1336
G01 X17.7614 Y3.1339
G01 X17.7504 Y3.1331
G01 X17.7395 Y3.1312
G01 X17.7336 Y3.1298
G01 X17.7186 Y3.1244
G01 X17.7087 Y3.1195
G01 X17.7034 Y3.1163
G01 X17.6944 Y3.1099
G01 X17.6843 Y3.1010
G01 X17.1700 Y2.5866
G01 X17.1627 Y2.5782
G01 X17.1563 Y2.5692
G01 X17.1509 Y2.5596
G01 X17.1464 Y2.5496
G01 X17.1443 Y2.5438
G01 X17.1414 Y2.5331
G01 X17.1395 Y2.5223
G01 X17.1388 Y2.5063
G01 X17.1395 Y2.4953
G00 Z2.0000
G00 X17.8368 Y3.3432
G01 F60.00
G01 Z-0.020
G01 F120.00
G01 X17.8404 Y3.3189
G01 X17.8473 Y3.2903
G01 X17.8589 Y3.2580
G01 X17.8717 Y3.2314
G01 X17.8870 Y3.2063
G01 X17.9048 Y3.1828
G01 X17.9213 Y3.1646
G01 X19.4079 Y1.6779
G01 X19.4316 Y1.6567
G01 X19.4554 Y1.6393
G01 X19.4808 Y1.6244
G01 X19.5075 Y1.6120
G01 X19.5353 Y1.6023
G01 X19.5639 Y1.5954
G01 X19.5930 Y1.5913
G01 X19.6225 Y1.5901
G01 X19.6518 Y1.5918
G01 X19.6761 Y1.5954
G01 X19.7047 Y1.6023
G01 X19.7325 Y1.6120
G01 X19.7592 Y1.6244
G01 X19.7846 Y1.6393
G01 X19.8084 Y1.6567
G01 X19.8304 Y1.6763
G01 X21.3171 Y3.1629
G01 X21.3383 Y3.1866
G01 X21.3557 Y3.2104
G01 X21.3706 Y3.2358
G01 X21.3830 Y3.2625
G01 X21.3927 Y3.2903
G01 X21.3996 Y3.3189
G01 X21.4037 Y3.3480
G01 X21.4049 Y3.3775
G01 X21.4032 Y3.4068
G01 X21.3996 Y3.4311
G01 X21.3927 Y3.4597
G01 X21.3830 Y3.4875
G01 X21.3706 Y3.5142
G01 X21.3557 Y3.5396
G01 X21.3383 Y3.5634
G01 X21.3187 Y3.5854
G01 X19.8321 Y5.0721
G01 X19.8084 Y5.0933
G01 X19.7846 Y5.1107
G01 X19.7592 Y5.1256
G01 X19.7325 Y5.1380
G01 X19.7047 Y5.1477
G01 X19.6761 Y5.1546
G01 X19.6470 Y5.1587
G01 X19.6175 Y5.1599
G01 X19.5882 Y5.1582
G01 X19.5639 Y5.1546
G01 X19.5353 Y5.1477
G01 X19.5075 Y5.1380
G01 X19.4808 Y5.1256
G01 X19.4554 Y5.1107
G01 X19.4316 Y5.0933
G01 X19.4096 Y5.0737
G01 X17.9229 Y3.5871
G01 X17.9017 Y3.5634
G01 X17.8843 Y3.5396
G01 X17.8717 Y3.5186
G01 X17.8589 Y3.4920
G01 X17.8488 Y3.4644
G01 X17.8404 Y3.4311
G01 X17.8363 Y3.4020
G01 X17.8351 Y3.3725
G01 X17.8368 Y3.3432
G00 Z2.0000
G00 X11.2757 Y13.7329
G01 F60.00
G01 Z-0.020
G01 F120.00
G01 X11.2877 Y13.6305
G01 X11.3097 Y13.5299
G01 X11.3415 Y13.4318
G01 X11.3805 Y13.3418
G01 X11.4303 Y13.2516
G01 X11.4888 Y13.1668
G01 X11.5586 Y13.0845
G01 X11.6328 Y13.0130
G01 X11.7137 Y12.9491
G01 X11.7982 Y12.8946
G01 X13.5303 Y11.8946
G01 X13.6197 Y11.8486
G01 X13.7201 Y11.8090
G01 X13.8193 Y11.7809
G01 X13.9207 Y11.7627
G01 X14.0185 Y11.7547
G01 X14.1215 Y11.7561
G01 X14.2287 Y11.7685
G01 X14.3294 Y11.7904
G01 X14.4274 Y11.8222
G01 X14.5219 Y11.8634
G01 X14.6118 Y11.9137
G01 X14.6964 Y11.9725
G01 X14.7712 Y12.0360
G01 X14.8431 Y12.1099
G01 X14.9073 Y12.1904
G01 X14.9633 Y12.2769
G01 X15.9646 Y14.0110
G01 X16.0106 Y14.1005
G01 X16.0503 Y14.2009
G01 X16.0784 Y14.3000
G01 X16.0966 Y14.4014
G01 X16.1046 Y14.4992
G01 X16.1031 Y14.6022
G01 X16.0908 Y14.7095
G01 X16.0688 Y14.8101
G01 X16.0371 Y14.9082
G01 X15.9959 Y15.0026
G01 X15.9456 Y15.0925
G01 X15.8868 Y15.1771
G01 X15.8233 Y15.2520
G01 X15.7494 Y15.3238
G01 X15.6688 Y15.3880
G01 X15.5824 Y15.4441
G01 X13.8482 Y16.4454
G01 X13.7588 Y16.4914
G01 X13.6584 Y16.5310
G01 X13.5593 Y16.5591
G01 X13.4578 Y16.5773
G01 X13.3600 Y16.5853
G01 X13.2570 Y16.5839
G01 X13.1498 Y16.5715
G01 X13.0491 Y16.5496
G01 X12.9511 Y16.5178
G01 X12.8567 Y16.4766
G01 X12.7667 Y16.4263
G01 X12.6821 Y16.3675
G01 X12.6037 Y16.3007
G01 X12.5322 Y16.2265
G01 X12.4684 Y16.1456
G01 X12.4139 Y16.0610
G01 X11.4139 Y14.3290
G01 X11.3679 Y14.2395
G01 X11.3282 Y14.1391
G01 X11.3013 Y14.0448
G01 X11.2826 Y13.9435
G01 X11.2738 Y13.8359
G01 X11.2757 Y13.7329
G00 Z2.0000
G00 X17.5754 Y16.2396
G01 F60.00
G01 Z-0.020
G01 F120.00
G01 X17.5907 Y16.1378
G01 X17.6146 Y16.0426
G01 X17.6509 Y15.9409
G01 X17.6929 Y15.8522
G01 X17.7456 Y15.7637
G01 X17.8099 Y15.6770
G01 X17.8793 Y15.6008
G01 X17.9520 Y15.5349
G01 X18.0387 Y15.4706
G01 X18.1272 Y15.4179
G01 X18.2159 Y15.3759
G01 X18.3176 Y15.3396
G01 X18.4128 Y15.3157
G01 X18.5146 Y15.3004
G01 X18.6200 Y15.2950
G01 X20.6200 Y15.2950
G01 X20.7254 Y15.3004
G01 X20.8272 Y15.3157
G01 X20.9224 Y15.3396
G01 X21.0195 Y15.3740
G01 X21.1128 Y15.4179
G01 X21.2013 Y15.4706
G01 X21.2880 Y15.5349
G01 X21.3642 Y15.6043
G01 X21.4332 Y15.6808
G01 X21.4944 Y15.7637
G01 X21.5471 Y15.8522
G01 X21.5910 Y15.9455
G01 X21.6254 Y16.0426
G01 X21.6502 Y16.1426
G01 X21.6646 Y16.2396
G01 X21.6699 Y16.3425
G01 X21.6700 Y16.7947
G01 X22.1478 Y16.7947
G01 X23.5619 Y15.3807
G01 X23.4906 Y15.3238
G01 X23.4167 Y15.2520
G01 X23.3532 Y15.1771
G01 X23.2944 Y15.0925
G01 X23.2420 Y14.9982
G01 X23.2029 Y14.9082
G01 X23.1712 Y14.8101
G01 X23.1492 Y14.7095
G01 X23.1372 Y14.6071
G01 X23.1354 Y14.4992
G01 X23.1441 Y14.3965
G01 X23.1616 Y14.3000
G01 X23.1913 Y14.1962
G01 X23.2294 Y14.1005
G01 X23.2754 Y14.0110
G01 X24.2754 Y12.2790
G01 X24.3298 Y12.1944
G01 X24.3937 Y12.1135
G01 X24.4652 Y12.0393
G01 X24.5436 Y11.9725
G01 X24.6282 Y11.9137
G01 X24.7225 Y11.8612
G01 X24.8172 Y11.8205
G01 X24.9153 Y11.7892
G01 X25.0113 Y11.7685
G01 X25.1136 Y11.7564
G01 X25.2215 Y11.7547
G01 X25.3242 Y11.7633
G01 X25.4255 Y11.7820
G01 X25.5199 Y11.8090
G01 X25.6158 Y11.8466
G01 X25.7097 Y11.8946
G01 X27.4418 Y12.8946
G01 X27.5303 Y12.9520
G01 X27.6109 Y13.0162
G01 X27.6848 Y13.0880
G01 X27.7512 Y13.1668
G01 X27.8097 Y13.2516
G01 X27.8595 Y13.3418
G01 X27.9003 Y13.4364
G01 X27.9316 Y13.5346
G01 X27.9531 Y13.6354
G01 X27.9646 Y13.7378
G01 X27.9661 Y13.8408
G01 X27.9580 Y13.9386
G01 X27.9398 Y14.0400
G01 X27.9118 Y14.1391
G01 X27.8721 Y14.2395
G01 X27.8261 Y14.3290
G01 X26.8248 Y16.0631
G01 X26.7688 Y16.1496
G01 X26.7078 Y16.2265
G01 X26.6363 Y16.3007
G01 X26.5579 Y16.3675
G01 X26.4733 Y16.4263
G01 X26.3833 Y16.4766
G01 X26.2889 Y16.5178
G01 X26.1861 Y16.5508
G01 X26.0902 Y16.5715
G01 X25.9879 Y16.5836
G01 X25.8849 Y16.5855
G01 X25.7822 Y16.5773
G01 X25.6807 Y16.5591
G01 X25.5769 Y16.5295
G01 X25.4812 Y16.4914
G01 X25.3939 Y16.4465
G01 X24.5434 Y15.9555
G01 X22.7648 Y17.7341
G01 X22.7267 Y17.7687
G01 X22.6834 Y17.8011
G01 X22.6329 Y17.8314
G01 X22.5840 Y17.8542
G01 X22.5378 Y17.8708
G01 X22.4807 Y17.8851
G01 X22.4272 Y17.8928
G01 X22.3757 Y17.8953
G01 X21.6700 Y17.8953
G01 X21.6700 Y18.3450
G01 X21.6646 Y18.4504
G01 X21.6493 Y18.5522
G01 X21.6240 Y18.6521
G01 X21.5891 Y18.7491
G01 X21.5471 Y18.8378
G01 X21.4944 Y18.9263
G01 X21.4332 Y19.0092
G01 X21.3642 Y19.0857
G01 X21.2880 Y19.1551
G01 X21.2054 Y19.2166
G01 X21.1171 Y19.2698
G01 X21.0241 Y19.3141
G01 X20.9224 Y19.3504
G01 X20.8272 Y19.3743
G01 X20.7254 Y19.3896
G01 X20.6200 Y19.3950
G01 X18.6200 Y19.3950
G01 X18.5195 Y19.3901
G01 X18.4176 Y19.3752
G01 X18.3176 Y19.3504
G01 X18.2159 Y19.3141
G01 X18.1272 Y19.2721
G01 X18.0387 Y19.2194
G01 X17.9558 Y19.1582
G01 X17.8793 Y19.0892
G01 X17.8099 Y19.0130
G01 X17.7484 Y18.9304
G01 X17.6929 Y18.8378
G01 X17.6509 Y18.7491
G01 X17.6160 Y18.6521
G01 X17.5907 Y18.5522
G01 X17.5754 Y18.4504
G01 X17.5700 Y18.3450
G01 X17.5700 Y16.3450
G01 X17.5754 Y16.2396
G00 Z2.0000
G00 X17.9782 Y21.6258
G01 F60.00
G01 Z-0.020
G01 F120.00
G01 X18.0022 Y21.4657
G01 X18.0418 Y21.3087
G01 X18.0966 Y21.1563
G01 X18.1660 Y21.0101
G01 X18.2495 Y20.8713
G01 X18.3461 Y20.7414
G01 X18.4551 Y20.6216
G01 X18.5752 Y20.5130
G01 X18.7054 Y20.4168
G01 X18.8444 Y20.3337
G01 X18.9909 Y20.2647
G01 X19.1434 Y20.2104
G01 X19.3005 Y20.1713
G01 X19.4607 Y20.1478
G01 X19.6225 Y20.1401
G01 X19.7842 Y20.1482
G01 X19.9443 Y20.1722
G01 X20.1013 Y20.2118
G01 X20.2537 Y20.2666
G01 X20.3999 Y20.3360
G01 X20.5387 Y20.4195
G01 X20.6686 Y20.5161
G01 X20.7884 Y20.6251
G01 X20.8970 Y20.7452
G01 X20.9932 Y20.8754
G01 X21.0763 Y21.0144
G01 X21.1453 Y21.1609
G01 X21.1996 Y21.3134
G01 X21.2387 Y21.4705
G01 X21.2622 Y21.6307
G01 X21.2699 Y21.7925
G01 X21.2618 Y21.9542
G01 X21.2378 Y22.1143
G01 X21.1982 Y22.2713
G01 X21.1434 Y22.4237
G01 X21.0740 Y22.5699
G01 X20.9905 Y22.7087
G01 X20.8939 Y22.8386
G01 X20.7849 Y22.9584
G01 X20.6648 Y23.0670
G01 X20.5346 Y23.1632
G01 X20.3956 Y23.2463
G01 X20.2491 Y23.3153
G01 X20.0966 Y23.3696
G01 X19.9395 Y23.4087
G01 X19.7793 Y23.4322
G01 X19.6175 Y23.4399
G01 X19.4558 Y23.4318
G01 X19.2957 Y23.4078
G01 X19.1387 Y23.3682
G01 X18.9863 Y23.3134
G01 X18.8401 Y23.2440
G01 X18.7013 Y23.1605
G01 X18.5714 Y23.0639
G01 X18.4516 Y22.9549
G01 X18.3430 Y22.8348
G01 X18.2468 Y22.7046
G01 X18.1637 Y22.5656
G01 X18.0947 Y22.4191
G01 X18.0404 Y22.2666
G01 X18.0013 Y22.1095
G01 X17.9778 Y21.9493
G01 X17.9701 Y21.7875
G01 X17.9782 Y21.6258
G00 Z2.0000
G00 X27.7662 Y17.0191
G01 F60.00
G01 Z-0.020
G01 F120.00
G01 X27.8139 Y16.6988
G01 X27.8929 Y16.3847
G01 X28.0022 Y16.0799
G01 X28.1409 Y15.7873
G01 X28.3076 Y15.5096
G01 X28.5007 Y15.2496
G01 X28.7183 Y15.0099
G01 X28.9584 Y14.7926
G01 X29.2187 Y14.5998
G01 X29.4966 Y14.4336
G01 X29.7894 Y14.2953
G01 X30.0944 Y14.1864
G01 X30.4086 Y14.1080
G01 X30.7290 Y14.0607
G01 X31.0525 Y14.0451
G01 X31.3759 Y14.0612
G01 X31.6962 Y14.1089
G01 X32.0103 Y14.1879
G01 X32.3151 Y14.2972
G01 X32.6077 Y14.4359
G01 X32.8854 Y14.6026
G01 X33.1454 Y14.7957
G01 X33.3851 Y15.0133
G01 X33.6024 Y15.2534
G01 X33.7952 Y15.5137
G01 X33.9614 Y15.7916
G01 X34.0997 Y16.0844
G01 X34.2086 Y16.3894
G01 X34.2870 Y16.7036
G01 X34.3343 Y17.0240
G01 X34.3499 Y17.3475
G01 X34.3338 Y17.6709
G01 X34.2861 Y17.9912
G01 X34.2071 Y18.3053
G01 X34.0978 Y18.6101
G01 X33.9591 Y18.9027
G01 X33.7924 Y19.1804
G01 X33.5993 Y19.4404
G01 X33.3817 Y19.6801
G01 X33.1416 Y19.8974
G01 X32.8813 Y20.0902
G01 X32.6034 Y20.2564
G01 X32.3106 Y20.3947
G01 X32.0056 Y20.5036
G01 X31.6914 Y20.5820
G01 X31.3710 Y20.6293
G01 X31.0475 Y20.6449
G01 X30.7241 Y20.6288
G01 X30.4038 Y20.5811
G01 X30.0897 Y20.5021
G01 X29.7849 Y20.3928
G01 X29.4923 Y20.2541
G01 X29.2146 Y20.0874
G01 X28.9546 Y19.8943
G01 X28.7149 Y19.6767
G01 X28.4976 Y19.4366
G01 X28.3048 Y19.1763
G01 X28.1386 Y18.8984
G01 X28.0003 Y18.6056
G01 X27.8914 Y18.3006
G01 X27.8130 Y17.9864
G01 X27.7657 Y17.6660
G01 X27.7501 Y17.3425
G01 X27.7662 Y17.0191
G00 Z2.0000
G00 X4.9062 Y17.0191
G01 F60.00
G01 Z-0.020
G01 F120.00
G01 X4.9539 Y16.6988
G01 X5.0329 Y16.3847
G01 X5.1422 Y16.0799
G01 X5.2809 Y15.7873
G01 X5.4476 Y15.5096
G01 X5.6407 Y15.2496
G01 X5.8583 Y15.0099
G01 X6.0984 Y14.7926
G01 X6.3587 Y14.5998
G01 X6.6366 Y14.4336
G01 X6.9294 Y14.2953
G01 X7.2344 Y14.1864
G01 X7.5486 Y14.1080
G01 X7.8690 Y14.0607
G01 X8.1925 Y14.0451
G01 X8.5159 Y14.0612
G01 X8.8362 Y14.1089
G01 X9.1503 Y14.1879
G01 X9.4551 Y14.2972
G01 X9.7477 Y14.4359
G01 X10.0254 Y14.6026
G01 X10.2854 Y14.7957
G01 X10.5251 Y15.0133
G01 X10.7424 Y15.2534
G01 X10.9352 Y15.5137
G01 X11.1014 Y15.7916
G01 X11.2397 Y16.0844
G01 X11.3486 Y16.3894
G01 X11.4270 Y16.7036
G01 X11.4743 Y17.0240
G01 X11.4899 Y17.3475
G01 X11.4738 Y17.6709
G01 X11.4261 Y17.9912
G01 X11.3471 Y18.3053
G01 X11.2378 Y18.6101
G01 X11.0991 Y18.9027
G01 X10.9324 Y19.1804
G01 X10.7393 Y19.4404
G01 X10.5217 Y19.6801
G01 X10.2816 Y19.8974
G01 X10.0213 Y20.0902
G01 X9.7434 Y20.2564
G01 X9.4506 Y20.3947
G01 X9.1456 Y20.5036
G01 X8.8314 Y20.5820
G01 X8.5110 Y20.6293
G01 X8.1875 Y20.6449
G01 X7.8641 Y20.6288
G01 X7.5438 Y20.5811
G01 X7.2297 Y20.5021
G01 X6.9249 Y20.3928
G01 X6.6323 Y20.2541
G01 X6.3546 Y20.0874
G01 X6.0946 Y19.8943
G01 X5.8549 Y19.6767
G01 X5.6376 Y19.4366
G01 X5.4448 Y19.1763
G01 X5.2786 Y18.8984
G01 X5.1403 Y18.6056
G01 X5.0314 Y18.3006
G01 X4.9530 Y17.9864
G01 X4.9057 Y17.6660
G01 X4.8901 Y17.3425
G01 X4.9062 Y17.0191
G00 Z2.0000
G00 X0.2817 Y17.2682
G01 F60.00
G01 Z-0.020
G01 F120.00
G01 X0.2863 Y17.2391
G01 X0.2937 Y17.2106
G01 X0.3020 Y17.1875
G01 X0.3166 Y17.1564
G01 X0.3292 Y17.1354
G01 X0.3466 Y17.1116
G01 X0.3696 Y17.0862
G01 X0.3916 Y17.0666
G01 X0.4154 Y17.0492
G01 X0.4364 Y17.0366
G01 X0.4630 Y17.0238
G01 X0.4953 Y17.0123
G01 X0.5239 Y17.0053
G01 X0.5530 Y17.0013
G01 X0.5800 Y17.0000
G01 X0.9049 Y17.0000
G01 X0.9049 Y14.1700
G01 X0.9066 Y14.1381
G01 X0.9102 Y14.1139
G01 X0.9171 Y14.0852
G01 X0.9287 Y14.0529
G01 X0.9415 Y14.0264
G01 X0.9569 Y14.0013
G01 X0.9715 Y13.9815
G01 X0.9928 Y13.9578
G01 X3.5328 Y11.4178
G01 X3.5527 Y11.3996
G01 X3.5803 Y11.3791
G01 X3.6057 Y11.3642
G01 X3.6279 Y11.3537
G01 X3.6602 Y11.3421
G01 X3.6889 Y11.3352
G01 X3.7131 Y11.3316
G01 X3.7450 Y11.3299
G01 X4.0350 Y11.3299
G01 X4.0350 Y11.0050
G01 X4.0363 Y10.9780
G01 X4.0403 Y10.9489
G01 X4.0487 Y10.9156
G01 X4.0570 Y10.8925
G01 X4.0693 Y10.8658
G01 X4.0842 Y10.8404
G01 X4.1016 Y10.8166
G01 X4.1246 Y10.7912
G01 X4.1428 Y10.7747
G01 X4.1663 Y10.7570
G01 X4.1914 Y10.7416
G01 X4.2180 Y10.7288
G01 X4.2503 Y10.7173
G01 X4.2789 Y10.7103
G01 X4.3080 Y10.7063
G01 X4.3350 Y10.7050
G01 X5.2600 Y10.7050
G01 X5.2918 Y10.7067
G01 X5.3161 Y10.7103
G01 X5.3447 Y10.7173
G01 X5.3725 Y10.7270
G01 X5.3992 Y10.7393
G01 X5.4287 Y10.7570
G01 X5.4522 Y10.7747
G01 X5.4738 Y10.7946
G01 X5.4934 Y10.8166
G01 X5.5108 Y10.8404
G01 X5.5257 Y10.8658
G01 X5.5380 Y10.8925
G01 X5.5463 Y10.9156
G01 X5.5537 Y10.9441
G01 X5.5583 Y10.9732
G01 X5.5600 Y11.0050
G01 X5.5600 Y11.1556
G01 X7.4314 Y9.2841
G01 X7.4552 Y9.2628
G01 X7.4790 Y9.2455
G01 X7.5044 Y9.2306
G01 X7.5265 Y9.2201
G01 X7.5589 Y9.2085
G01 X7.5875 Y9.2016
G01 X7.6118 Y9.1980
G01 X7.6412 Y9.1963
G01 X8.8690 Y9.1962
G01 X9.5774 Y8.4879
G01 X9.5774 Y4.3000
G01 X9.4150 Y4.3000
G01 X9.3832 Y4.2983
G01 X9.3541 Y4.2937
G01 X9.3256 Y4.2863
G01 X9.3025 Y4.2780
G01 X9.2758 Y4.2657
G01 X9.2504 Y4.2508
G01 X9.2266 Y4.2334
G01 X9.2046 Y4.2138
G01 X9.1847 Y4.1922
G01 X9.1670 Y4.1687
G01 X9.1493 Y4.1392
G01 X9.1370 Y4.1125
G01 X9.1273 Y4.0847
G01 X9.1203 Y4.0561
G01 X9.1167 Y4.0318
G01 X9.1150 Y4.0000
G01 X9.1150 Y2.7500
G01 X9.1163 Y2.7230
G01 X9.1203 Y2.6939
G01 X9.1287 Y2.6606
G01 X9.1388 Y2.6330
G01 X9.1516 Y2.6064
G01 X9.1642 Y2.5854
G01 X9.1816 Y2.5616
G01 X9.2012 Y2.5396
G01 X9.2228 Y2.5197
G01 X9.2463 Y2.5020
G01 X9.2758 Y2.4843
G01 X9.3025 Y2.4720
G01 X9.3256 Y2.4637
G01 X9.3541 Y2.4563
G01 X9.3832 Y2.4517
G01 X9.4150 Y2.4500
G01 X9.5818 Y2.4500
G01 X9.5837 Y2.4391
G01 X9.5911 Y2.4105
G01 X9.5993 Y2.3874
G01 X9.6117 Y2.3607
G01 X9.6294 Y2.3313
G01 X9.6471 Y2.3077
G01 X9.6636 Y2.2896
G01 X10.6953 Y1.2578
G01 X10.7190 Y1.2365
G01 X10.7428 Y1.2191
G01 X10.7682 Y1.2042
G01 X10.7949 Y1.1918
G01 X10.8180 Y1.1836
G01 X10.8514 Y1.1752
G01 X10.8805 Y1.1711
G01 X10.9075 Y1.1699
G01 X16.4450 Y1.1699
G01 X16.4720 Y1.1711
G01 X16.5011 Y1.1752
G01 X16.5345 Y1.1836
G01 X16.5576 Y1.1918
G01 X16.5843 Y1.2042
G01 X16.6137 Y1.2219
G01 X16.6373 Y1.2396
G01 X16.6554 Y1.2561
G01 X17.2201 Y1.8207
G01 X17.2383 Y1.8406
G01 X17.2513 Y1.8578
G01 X17.5708 Y1.8578
G01 X17.5855 Y1.8585
G01 X17.6073 Y1.8617
G01 X17.6239 Y1.8661
G01 X17.6355 Y1.8703
G01 X17.6554 Y1.8797
G01 X17.6701 Y1.8888
G01 X17.6799 Y1.8961
G01 X17.6946 Y1.9091
G01 X18.2853 Y2.5000
G01 X18.2943 Y2.5101
G01 X18.2979 Y2.5150
G01 X18.3038 Y2.5243
G01 X18.3087 Y2.5342
G01 X18.3127 Y2.5445
G01 X18.3165 Y2.5600
G01 X18.3179 Y2.5709
G01 X18.3182 Y2.5820
G01 X18.3174 Y2.5930
G01 X18.3156 Y2.6038
G01 X18.3127 Y2.6145
G01 X18.3106 Y2.6203
G01 X18.3061 Y2.6303
G01 X18.3006 Y2.6399
G01 X18.2911 Y2.6527
G01 X18.2853 Y2.6591
G01 X18.1969 Y2.7474
G01 X18.1868 Y2.7564
G01 X18.1819 Y2.7600
G01 X18.1726 Y2.7659
G01 X18.1582 Y2.7727
G01 X18.1477 Y2.7762
G01 X18.1369 Y2.7787
G01 X18.1260 Y2.7800
G01 X18.1149 Y2.7803
G01 X18.1039 Y2.7796
G01 X18.0979 Y2.7787
G01 X18.0871 Y2.7762
G01 X18.0766 Y2.7727
G01 X18.0666 Y2.7682
G01 X18.0570 Y2.7627
G01 X18.0480 Y2.7564
G01 X18.0378 Y2.7474
G01 X17.4983 Y2.2080
G01 X17.2513 Y2.2080
G01 X17.2383 Y2.2252
G01 X17.2183 Y2.2468
G01 X17.1964 Y2.2664
G01 X17.1726 Y2.2838
G01 X17.1472 Y2.2987
G01 X17.1205 Y2.3111
G01 X17.0927 Y2.3208
G01 X17.0640 Y2.3277
G01 X17.0397 Y2.3313
G01 X17.0103 Y2.3330
G01 X16.9760 Y2.3313
G01 X16.9470 Y2.3267
G01 X16.9184 Y2.3193
G01 X16.8953 Y2.3111
G01 X16.8686 Y2.2987
G01 X16.8432 Y2.2838
G01 X16.8194 Y2.2664
G01 X16.7975 Y2.2468
G01 X16.3207 Y1.7701
G01 X11.0318 Y1.7701
G01 X10.3514 Y2.4505
G01 X10.3718 Y2.4517
G01 X10.4009 Y2.4563
G01 X10.4294 Y2.4637
G01 X10.4525 Y2.4720
G01 X10.4792 Y2.4843
G01 X10.5046 Y2.4992
G01 X10.5322 Y2.5197
G01 X10.5538 Y2.5396
G01 X10.5703 Y2.5578
G01 X10.5880 Y2.5813
G01 X10.6034 Y2.6064
G01 X10.6180 Y2.6375
G01 X10.6277 Y2.6653
G01 X10.6347 Y2.6939
G01 X10.6387 Y2.7230
G01 X10.6400 Y2.7500
G01 X10.6399 Y4.0025
G01 X10.6383 Y4.0318
G01 X10.6347 Y4.0561
G01 X10.6277 Y4.0847
G01 X10.6180 Y4.1125
G01 X10.6034 Y4.1436
G01 X10.5880 Y4.1687
G01 X10.5703 Y4.1922
G01 X10.5538 Y4.2104
G01 X10.5322 Y4.2303
G01 X10.5046 Y4.2508
G01 X10.4792 Y4.2657
G01 X10.4525 Y4.2780
G01 X10.4247 Y4.2877
G01 X10.3961 Y4.2947
G01 X10.3670 Y4.2987
G01 X10.3400 Y4.3000
G01 X10.1776 Y4.3000
G01 X10.1776 Y8.6122
G01 X10.1764 Y8.6391
G01 X10.1723 Y8.6683
G01 X10.1639 Y8.7016
G01 X10.1557 Y8.7247
G01 X10.1433 Y8.7515
G01 X10.1256 Y8.7809
G01 X10.1079 Y8.8044
G01 X10.0897 Y8.8244
G01 X9.2055 Y9.7086
G01 X9.1856 Y9.7268
G01 X9.1621 Y9.7445
G01 X9.1369 Y9.7598
G01 X9.1104 Y9.7726
G01 X9.0828 Y9.7828
G01 X9.0543 Y9.7902
G01 X9.0252 Y9.7947
G01 X8.9933 Y9.7965
G01 X7.7680 Y9.7965
G01 X5.7222 Y11.8422
G01 X5.7023 Y11.8604
G01 X5.6787 Y11.8781
G01 X5.6493 Y11.8958
G01 X5.6226 Y11.9082
G01 X5.5995 Y11.9164
G01 X5.5709 Y11.9238
G01 X5.5600 Y11.9257
G01 X5.5599 Y12.2575
G01 X5.5583 Y12.2868
G01 X5.5547 Y12.3111
G01 X5.5477 Y12.3397
G01 X5.5380 Y12.3675
G01 X5.5257 Y12.3942
G01 X5.5080 Y12.4237
G01 X5.4903 Y12.4472
G01 X5.4704 Y12.4688
G01 X5.4484 Y12.4884
G01 X5.4246 Y12.5058
G01 X5.3992 Y12.5207
G01 X5.3725 Y12.5330
G01 X5.3494 Y12.5413
G01 X5.3209 Y12.5487
G01 X5.2918 Y12.5533
G01 X5.2600 Y12.5550
G01 X4.3350 Y12.5550
G01 X4.3080 Y12.5537
G01 X4.2789 Y12.5497
G01 X4.2503 Y12.5427
G01 X4.2225 Y12.5330
G01 X4.1958 Y12.5207
G01 X4.1663 Y12.5030
G01 X4.1428 Y12.4853
G01 X4.1212 Y12.4654
G01 X4.1016 Y12.4434
G01 X4.0842 Y12.4196
G01 X4.0716 Y12.3986
G01 X4.0588 Y12.3720
G01 X4.0487 Y12.3444
G01 X4.0403 Y12.3111
G01 X4.0367 Y12.2868
G01 X4.0351 Y12.2575
G01 X4.0350 Y11.9301
G01 X3.8693 Y11.9301
G01 X1.5051 Y14.2943
G01 X1.5051 Y17.0000
G01 X1.8325 Y17.0001
G01 X1.8618 Y17.0017
G01 X1.8861 Y17.0053
G01 X1.9194 Y17.0137
G01 X1.9470 Y17.0238
G01 X1.9736 Y17.0366
G01 X1.9946 Y17.0492
G01 X2.0222 Y17.0697
G01 X2.0438 Y17.0896
G01 X2.0634 Y17.1116
G01 X2.0808 Y17.1354
G01 X2.0934 Y17.1564
G01 X2.1062 Y17.1830
G01 X2.1163 Y17.2106
G01 X2.1247 Y17.2439
G01 X2.1287 Y17.2730
G01 X2.1300 Y17.3000
G01 X2.1300 Y18.2250
G01 X2.1287 Y18.2520
G01 X2.1247 Y18.2811
G01 X2.1177 Y18.3097
G01 X2.1080 Y18.3375
G01 X2.0957 Y18.3642
G01 X2.0808 Y18.3896
G01 X2.0634 Y18.4134
G01 X2.0438 Y18.4354
G01 X2.0222 Y18.4553
G01 X1.9946 Y18.4758
G01 X1.9692 Y18.4907
G01 X1.9425 Y18.5030
G01 X1.9147 Y18.5127
G01 X1.8861 Y18.5197
G01 X1.8570 Y18.5237
G01 X1.8300 Y18.5250
G01 X0.5775 Y18.5249
G01 X0.5482 Y18.5233
G01 X0.5239 Y18.5197
G01 X0.4906 Y18.5113
G01 X0.4675 Y18.5030
G01 X0.4408 Y18.4907
G01 X0.4113 Y18.4730
G01 X0.3878 Y18.4553
G01 X0.3662 Y18.4354
G01 X0.3466 Y18.4134
G01 X0.3292 Y18.3896
G01 X0.3143 Y18.3642
G01 X0.3020 Y18.3375
G01 X0.2937 Y18.3144
G01 X0.2863 Y18.2859
G01 X0.2817 Y18.2568
G01 X0.2800 Y18.2250
G01 X0.2800 Y17.3000
G01 X0.2817 Y17.2682
G00 Z2.0000
G00 X0.2817 Y20.2432
G01 F60.00
G01 Z-0.020
G01 F120.00
G01 X0.2853 Y20.2189
G01 X0.2923 Y20.1903
G01 X0.3038 Y20.1580
G01 X0.3166 Y20.1314
G01 X0.3320 Y20.1063
G01 X0.3497 Y20.0828
G01 X0.3662 Y20.0646
G01 X0.3916 Y20.0416
G01 X0.4154 Y20.0242
G01 X0.4408 Y20.0093
G01 X0.4675 Y19.9970
G01 X0.4906 Y19.9887
G01 X0.5239 Y19.9803
G01 X0.5530 Y19.9763
G01 X0.5800 Y19.9750
G01 X1.8300 Y19.9750
G01 X1.8570 Y19.9763
G01 X1.8861 Y19.9803
G01 X1.9147 Y19.9873
G01 X1.9425 Y19.9970
G01 X1.9692 Y20.0093
G01 X1.9946 Y20.0242
G01 X2.0184 Y20.0416
G01 X2.0404 Y20.0612
G01 X2.0603 Y20.0828
G01 X2.0780 Y20.1063
G01 X2.0934 Y20.1314
G01 X2.1062 Y20.1580
G01 X2.1163 Y20.1856
G01 X2.1237 Y20.2141
G01 X2.1283 Y20.2432
G01 X2.1295 Y20.2636
G01 X2.8099 Y19.5832
G01 X2.8099 Y16.0750
G01 X2.8116 Y16.0431
G01 X2.8162 Y16.0141
G01 X2.8236 Y15.9855
G01 X2.8318 Y15.9624
G01 X2.8442 Y15.9357
G01 X2.8619 Y15.9063
G01 X2.8796 Y15.8827
G01 X2.8978 Y15.8628
G01 X5.4378 Y13.3228
G01 X5.4615 Y13.3015
G01 X5.4813 Y13.2869
G01 X5.5064 Y13.2715
G01 X5.5374 Y13.2568
G01 X5.5605 Y13.2486
G01 X5.5891 Y13.2412
G01 X5.6230 Y13.2361
G01 X5.6500 Y13.2349
G01 X6.6182 Y13.2349
G01 X7.2986 Y12.5545
G01 X7.2782 Y12.5533
G01 X7.2491 Y12.5487
G01 X7.2206 Y12.5413
G01 X7.1930 Y12.5312
G01 X7.1664 Y12.5184
G01 X7.1413 Y12.5030
G01 X7.1178 Y12.4853
G01 X7.0996 Y12.4688
G01 X7.0766 Y12.4434
G01 X7.0592 Y12.4196
G01 X7.0443 Y12.3942
G01 X7.0320 Y12.3675
G01 X7.0237 Y12.3444
G01 X7.0163 Y12.3159
G01 X7.0117 Y12.2868
G01 X7.0100 Y12.2550
G01 X7.0100 Y11.0050
G01 X7.0113 Y10.9780
G01 X7.0153 Y10.9489
G01 X7.0223 Y10.9203
G01 X7.0338 Y10.8880
G01 X7.0466 Y10.8614
G01 X7.0620 Y10.8363
G01 X7.0797 Y10.8128
G01 X7.0962 Y10.7946
G01 X7.1178 Y10.7747
G01 X7.1413 Y10.7570
G01 X7.1664 Y10.7416
G01 X7.1930 Y10.7288
G01 X7.2253 Y10.7173
G01 X7.2539 Y10.7103
G01 X7.2830 Y10.7063
G01 X7.3100 Y10.7050
G01 X8.2350 Y10.7050
G01 X8.2668 Y10.7067
G01 X8.2911 Y10.7103
G01 X8.3197 Y10.7173
G01 X8.3475 Y10.7270
G01 X8.3742 Y10.7393
G01 X8.4037 Y10.7570
G01 X8.4272 Y10.7747
G01 X8.4488 Y10.7946
G01 X8.4684 Y10.8166
G01 X8.4858 Y10.8404
G01 X8.5007 Y10.8658
G01 X8.5130 Y10.8925
G01 X8.5213 Y10.9156
G01 X8.5287 Y10.9441
G01 X8.5333 Y10.9732
G01 X8.5350 Y11.0050
G01 X8.5350 Y11.1556
G01 X12.5524 Y7.1382
G01 X12.5524 Y4.3000
G01 X12.3900 Y4.3000
G01 X12.3582 Y4.2983
G01 X12.3291 Y4.2937
G01 X12.3006 Y4.2863
G01 X12.2730 Y4.2762
G01 X12.2464 Y4.2634
G01 X12.2213 Y4.2480
G01 X12.1978 Y4.2303
G01 X12.1796 Y4.2138
G01 X12.1597 Y4.1922
G01 X12.1392 Y4.1646
G01 X12.1266 Y4.1436
G01 X12.1138 Y4.1170
G01 X12.1037 Y4.0894
G01 X12.0953 Y4.0561
G01 X12.0913 Y4.0270
G01 X12.0900 Y4.0000
G01 X12.0900 Y2.7500
G01 X12.0913 Y2.7230
G01 X12.0953 Y2.6939
G01 X12.1037 Y2.6606
G01 X12.1138 Y2.6330
G01 X12.1266 Y2.6064
G01 X12.1392 Y2.5854
G01 X12.1597 Y2.5578
G01 X12.1796 Y2.5362
G01 X12.2016 Y2.5166
G01 X12.2254 Y2.4992
G01 X12.2464 Y2.4866
G01 X12.2730 Y2.4738
G01 X12.3006 Y2.4637
G01 X12.3339 Y2.4553
G01 X12.3582 Y2.4517
G01 X12.3875 Y2.4501
G01 X13.3150 Y2.4500
G01 X13.3468 Y2.4517
G01 X13.3711 Y2.4553
G01 X13.3997 Y2.4623
G01 X13.4320 Y2.4738
G01 X13.4586 Y2.4866
G01 X13.4837 Y2.5020
G01 X13.5072 Y2.5197
G01 X13.5254 Y2.5362
G01 X13.5484 Y2.5616
G01 X13.5658 Y2.5854
G01 X13.5784 Y2.6064
G01 X13.5930 Y2.6375
G01 X13.6013 Y2.6606
G01 X13.6087 Y2.6891
G01 X13.6133 Y2.7182
G01 X13.6150 Y2.7500
G01 X13.6150 Y4.0000
G01 X13.6133 Y4.0318
G01 X13.6097 Y4.0561
G01 X13.6027 Y4.0847
G01 X13.5930 Y4.1125
G01 X13.5807 Y4.1392
G01 X13.5630 Y4.1687
G01 X13.5453 Y4.1922
G01 X13.5254 Y4.2138
G01 X13.5034 Y4.2334
G01 X13.4796 Y4.2508
G01 X13.4542 Y4.2657
G01 X13.4275 Y4.2780
G01 X13.4044 Y4.2863
G01 X13.3759 Y4.2937
G01 X13.3468 Y4.2983
G01 X13.3150 Y4.3000
G01 X13.1526 Y4.3000
G01 X13.1526 Y6.9624
G01 X22.8725 Y6.9624
G01 X22.8995 Y6.9636
G01 X22.9286 Y6.9677
G01 X22.9620 Y6.9761
G01 X22.9851 Y6.9843
G01 X23.0118 Y6.9967
G01 X23.0372 Y7.0116
G01 X23.0610 Y7.0290
G01 X23.0864 Y7.0521
G01 X23.1060 Y7.0740
G01 X23.1206 Y7.0938
G01 X23.1383 Y7.1232
G01 X23.1507 Y7.1499
G01 X23.1589 Y7.1730
G01 X23.1673 Y7.2064
G01 X23.1714 Y7.2355
G01 X23.1726 Y7.2625
G01 X23.1726 Y8.2307
G01 X24.4105 Y9.4686
G01 X24.4117 Y9.4482
G01 X24.4163 Y9.4191
G01 X24.4237 Y9.3906
G01 X24.4320 Y9.3675
G01 X24.4443 Y9.3408
G01 X24.4592 Y9.3154
G01 X24.4797 Y9.2878
G01 X24.4996 Y9.2662
G01 X24.5178 Y9.2497
G01 X24.5413 Y9.2320
G01 X24.5664 Y9.2166
G01 X24.5975 Y9.2020
G01 X24.6253 Y9.1923
G01 X24.6539 Y9.1853
G01 X24.6830 Y9.1813
G01 X24.7100 Y9.1800
G01 X25.9625 Y9.1801
G01 X25.9918 Y9.1817
G01 X26.0161 Y9.1853
G01 X26.0447 Y9.1923
G01 X26.0725 Y9.2020
G01 X26.1036 Y9.2166
G01 X26.1287 Y9.2320
G01 X26.1522 Y9.2497
G01 X26.1704 Y9.2662
G01 X26.1903 Y9.2878
G01 X26.2108 Y9.3154
G01 X26.2257 Y9.3408
G01 X26.2380 Y9.3675
G01 X26.2477 Y9.3953
G01 X26.2547 Y9.4239
G01 X26.2587 Y9.4530
G01 X26.2600 Y9.4800
G01 X26.2600 Y9.6424
G01 X28.6776 Y9.6424
G01 X26.7952 Y7.4584
G01 X26.7785 Y7.4372
G01 X26.7716 Y7.4272
G01 X26.7602 Y7.4082
G01 X26.7491 Y7.3862
G01 X26.7443 Y7.3751
G01 X26.7368 Y7.3542
G01 X26.7302 Y7.3305
G01 X26.7277 Y7.3186
G01 X26.7250 Y7.3016
G01 X26.7236 Y7.2895
G01 X26.7224 Y7.2625
G01 X26.7224 Y4.3000
G01 X26.5600 Y4.3000
G01 X26.5282 Y4.2983
G01 X26.4991 Y4.2937
G01 X26.4706 Y4.2863
G01 X26.4475 Y4.2780
G01 X26.4208 Y4.2657
G01 X26.3954 Y4.2508
G01 X26.3716 Y4.2334
G01 X26.3496 Y4.2138
G01 X26.3297 Y4.1922
G01 X26.3120 Y4.1687
G01 X26.2943 Y4.1392
G01 X26.2820 Y4.1125
G01 X26.2723 Y4.0847
G01 X26.2653 Y4.0561
G01 X26.2617 Y4.0318
G01 X26.2600 Y4.0000
G01 X26.2600 Y2.7500
G01 X26.2613 Y2.7230
G01 X26.2653 Y2.6939
G01 X26.2737 Y2.6606
G01 X26.2820 Y2.6375
G01 X26.2943 Y2.6108
G01 X26.3120 Y2.5813
G01 X26.3297 Y2.5578
G01 X26.3462 Y2.5396
G01 X26.3716 Y2.5166
G01 X26.3954 Y2.4992
G01 X26.4164 Y2.4866
G01 X26.4475 Y2.4720
G01 X26.4706 Y2.4637
G01 X26.4991 Y2.4563
G01 X26.5282 Y2.4517
G01 X26.5600 Y2.4500
G01 X27.4875 Y2.4501
G01 X27.5168 Y2.4517
G01 X27.5411 Y2.4553
G01 X27.5697 Y2.4623
G01 X27.5975 Y2.4720
G01 X27.6242 Y2.4843
G01 X27.6496 Y2.4992
G01 X27.6772 Y2.5197
G01 X27.6988 Y2.5396
G01 X27.7153 Y2.5578
G01 X27.7330 Y2.5813
G01 X27.7484 Y2.6064
G01 X27.7630 Y2.6375
G01 X27.7727 Y2.6653
G01 X27.7797 Y2.6939
G01 X27.7837 Y2.7230
G01 X27.7850 Y2.7500
G01 X27.7849 Y4.0025
G01 X27.7833 Y4.0318
G01 X27.7797 Y4.0561
G01 X27.7727 Y4.0847
G01 X27.7630 Y4.1125
G01 X27.7484 Y4.1436
G01 X27.7330 Y4.1687
G01 X27.7153 Y4.1922
G01 X27.6988 Y4.2104
G01 X27.6772 Y4.2303
G01 X27.6496 Y4.2508
G01 X27.6242 Y4.2657
G01 X27.5975 Y4.2780
G01 X27.5697 Y4.2877
G01 X27.5411 Y4.2947
G01 X27.5120 Y4.2987
G01 X27.4850 Y4.3000
G01 X27.3226 Y4.3000
G01 X27.3226 Y7.1510
G01 X29.3570 Y9.5113
G01 X31.3400 Y11.1940
G01 X31.3400 Y11.0050
G01 X31.3413 Y10.9780
G01 X31.3453 Y10.9489
G01 X31.3523 Y10.9203
G01 X31.3638 Y10.8880
G01 X31.3766 Y10.8614
G01 X31.3892 Y10.8404
G01 X31.4066 Y10.8166
G01 X31.4262 Y10.7946
G01 X31.4478 Y10.7747
G01 X31.4713 Y10.7570
G01 X31.5008 Y10.7393
G01 X31.5275 Y10.7270
G01 X31.5553 Y10.7173
G01 X31.5839 Y10.7103
G01 X31.6082 Y10.7067
G01 X31.6400 Y10.7050
G01 X32.5675 Y10.7051
G01 X32.5968 Y10.7067
G01 X32.6211 Y10.7103
G01 X32.6497 Y10.7173
G01 X32.6775 Y10.7270
G01 X32.7042 Y10.7393
G01 X32.7296 Y10.7542
G01 X32.7572 Y10.7747
G01 X32.7788 Y10.7946
G01 X32.7953 Y10.8128
G01 X32.8130 Y10.8363
G01 X32.8284 Y10.8614
G01 X32.8430 Y10.8925
G01 X32.8527 Y10.9203
G01 X32.8597 Y10.9489
G01 X32.8637 Y10.9780
G01 X32.8650 Y11.0050
G01 X32.8650 Y11.3343
G01 X32.8759 Y11.3362
G01 X32.9045 Y11.3436
G01 X32.9276 Y11.3518
G01 X32.9543 Y11.3642
G01 X32.9837 Y11.3819
G01 X33.0073 Y11.3996
G01 X33.0272 Y11.4178
G01 X35.7072 Y14.0978
G01 X35.7254 Y14.1177
G01 X35.7459 Y14.1453
G01 X35.7608 Y14.1707
G01 X35.7732 Y14.1974
G01 X35.7829 Y14.2252
G01 X35.7898 Y14.2539
G01 X35.7939 Y14.2830
G01 X35.7951 Y14.3100
G01 X35.7951 Y17.3607
G01 X38.2472 Y19.8128
G01 X38.2654 Y19.8327
G01 X38.2831 Y19.8563
G01 X38.3008 Y19.8857
G01 X38.3132 Y19.9124
G01 X38.3214 Y19.9355
G01 X38.3288 Y19.9641
G01 X38.3307 Y19.9750
G01 X38.6600 Y19.9750
G01 X38.6870 Y19.9763
G01 X38.7161 Y19.9803
G01 X38.7447 Y19.9873
G01 X38.7725 Y19.9970
G01 X38.8036 Y20.0116
G01 X38.8287 Y20.0270
G01 X38.8522 Y20.0447
G01 X38.8738 Y20.0646
G01 X38.8903 Y20.0828
G01 X38.9108 Y20.1104
G01 X38.9257 Y20.1358
G01 X38.9380 Y20.1625
G01 X38.9463 Y20.1856
G01 X38.9537 Y20.2141
G01 X38.9587 Y20.2480
G01 X38.9600 Y20.2750
G01 X38.9599 Y21.2025
G01 X38.9583 Y21.2318
G01 X38.9547 Y21.2561
G01 X38.9477 Y21.2847
G01 X38.9380 Y21.3125
G01 X38.9257 Y21.3392
G01 X38.9108 Y21.3646
G01 X38.8934 Y21.3884
G01 X38.8738 Y21.4104
G01 X38.8522 Y21.4303
G01 X38.8287 Y21.4480
G01 X38.8036 Y21.4634
G01 X38.7770 Y21.4762
G01 X38.7447 Y21.4877
G01 X38.7161 Y21.4947
G01 X38.6870 Y21.4987
G01 X38.6600 Y21.5000
G01 X37.4100 Y21.5000
G01 X37.3830 Y21.4987
G01 X37.3539 Y21.4947
G01 X37.3206 Y21.4863
G01 X37.2930 Y21.4762
G01 X37.2664 Y21.4634
G01 X37.2413 Y21.4480
G01 X37.2178 Y21.4303
G01 X37.1996 Y21.4138
G01 X37.1797 Y21.3922
G01 X37.1620 Y21.3687
G01 X37.1443 Y21.3392
G01 X37.1320 Y21.3125
G01 X37.1237 Y21.2894
G01 X37.1153 Y21.2561
G01 X37.1117 Y21.2318
G01 X37.1101 Y21.2025
G01 X37.1100 Y20.2750
G01 X37.1117 Y20.2432
G01 X37.1153 Y20.2189
G01 X37.1223 Y20.1903
G01 X37.1320 Y20.1625
G01 X37.1443 Y20.1358
G01 X37.1620 Y20.1063
G01 X37.1797 Y20.0828
G01 X37.1996 Y20.0612
G01 X37.2216 Y20.0416
G01 X37.2454 Y20.0242
G01 X37.2708 Y20.0093
G01 X37.2975 Y19.9970
G01 X37.3206 Y19.9887
G01 X37.3491 Y19.9813
G01 X37.3782 Y19.9767
G01 X37.4100 Y19.9750
G01 X37.5606 Y19.9750
G01 X35.2828 Y17.6972
G01 X35.2615 Y17.6735
G01 X35.2469 Y17.6537
G01 X35.2315 Y17.6286
G01 X35.2187 Y17.6021
G01 X35.2071 Y17.5698
G01 X35.2002 Y17.5411
G01 X35.1966 Y17.5169
G01 X35.1949 Y17.4850
G01 X35.1949 Y14.4343
G01 X32.8650 Y12.1044
G01 X32.8650 Y12.2550
G01 X32.8633 Y12.2868
G01 X32.8587 Y12.3159
G01 X32.8513 Y12.3444
G01 X32.8430 Y12.3675
G01 X32.8307 Y12.3942
G01 X32.8158 Y12.4196
G01 X32.7984 Y12.4434
G01 X32.7788 Y12.4654
G01 X32.7572 Y12.4853
G01 X32.7337 Y12.5030
G01 X32.7086 Y12.5184
G01 X32.6820 Y12.5312
G01 X32.6544 Y12.5413
G01 X32.6211 Y12.5497
G01 X32.5920 Y12.5537
G01 X32.5650 Y12.5550
G01 X31.6400 Y12.5550
G01 X31.6082 Y12.5533
G01 X31.5791 Y12.5487
G01 X31.5506 Y12.5413
G01 X31.5275 Y12.5330
G01 X31.5008 Y12.5207
G01 X31.4754 Y12.5058
G01 X31.4516 Y12.4884
G01 X31.4296 Y12.4688
G01 X31.4097 Y12.4472
G01 X31.3920 Y12.4237
G01 X31.3743 Y12.3942
G01 X31.3620 Y12.3675
G01 X31.3523 Y12.3397
G01 X31.3453 Y12.3111
G01 X31.3417 Y12.2868
G01 X31.3401 Y12.2575
G01 X31.3400 Y11.9257
G01 X31.3242 Y11.9228
G01 X31.3052 Y11.9179
G01 X31.2959 Y11.9149
G01 X31.2774 Y11.9082
G01 X31.2684 Y11.9043
G01 X31.2464 Y11.8935
G01 X31.2253 Y11.8809
G01 X31.2172 Y11.8753
G01 X31.1958 Y11.8588
G01 X29.1617 Y10.1328
G01 X29.1379 Y10.1564
G01 X29.1160 Y10.1760
G01 X29.0922 Y10.1934
G01 X29.0668 Y10.2083
G01 X29.0401 Y10.2207
G01 X29.0170 Y10.2289
G01 X28.9884 Y10.2363
G01 X28.9594 Y10.2409
G01 X28.9300 Y10.2426
G01 X26.2600 Y10.2426
G01 X26.2600 Y10.4050
G01 X26.2583 Y10.4368
G01 X26.2537 Y10.4659
G01 X26.2463 Y10.4944
G01 X26.2380 Y10.5175
G01 X26.2257 Y10.5442
G01 X26.2108 Y10.5696
G01 X26.1934 Y10.5934
G01 X26.1738 Y10.6154
G01 X26.1522 Y10.6353
G01 X26.1287 Y10.6530
G01 X26.0992 Y10.6707
G01 X26.0725 Y10.6830
G01 X26.0447 Y10.6927
G01 X26.0161 Y10.6997
G01 X25.9918 Y10.7033
G01 X25.9600 Y10.7050
G01 X24.7100 Y10.7050
G01 X24.6782 Y10.7033
G01 X24.6491 Y10.6987
G01 X24.6206 Y10.6913
G01 X24.5930 Y10.6812
G01 X24.5664 Y10.6684
G01 X24.5413 Y10.6530
G01 X24.5178 Y10.6353
G01 X24.4962 Y10.6154
G01 X24.4766 Y10.5934
G01 X24.4592 Y10.5696
G01 X24.4443 Y10.5442
G01 X24.4320 Y10.5175
G01 X24.4237 Y10.4944
G01 X24.4163 Y10.4659
G01 X24.4113 Y10.4320
G01 X24.4100 Y10.4050
G01 X24.4100 Y10.2382
G01 X24.3991 Y10.2363
G01 X24.3705 Y10.2289
G01 X24.3474 Y10.2207
G01 X24.3207 Y10.2083
G01 X24.2913 Y10.1906
G01 X24.2677 Y10.1729
G01 X24.2478 Y10.1547
G01 X22.6603 Y8.5672
G01 X22.6390 Y8.5435
G01 X22.6216 Y8.5197
G01 X22.6067 Y8.4943
G01 X22.5962 Y8.4721
G01 X22.5861 Y8.4445
G01 X22.5777 Y8.4111
G01 X22.5736 Y8.3820
G01 X22.5724 Y8.3550
G01 X22.5724 Y7.5626
G01 X12.9768 Y7.5626
G01 X8.6972 Y11.8422
G01 X8.6773 Y11.8604
G01 X8.6537 Y11.8781
G01 X8.6243 Y11.8958
G01 X8.5976 Y11.9082
G01 X8.5745 Y11.9164
G01 X8.5459 Y11.9238
G01 X8.5350 Y11.9257
G01 X8.5350 Y12.2550
G01 X8.5337 Y12.2820
G01 X8.5297 Y12.3111
G01 X8.5227 Y12.3397
G01 X8.5130 Y12.3675
G01 X8.4984 Y12.3986
G01 X8.4830 Y12.4237
G01 X8.4653 Y12.4472
G01 X8.4454 Y12.4688
G01 X8.4272 Y12.4853
G01 X8.3996 Y12.5058
G01 X8.3786 Y12.5184
G01 X8.3520 Y12.5312
G01 X8.3244 Y12.5413
G01 X8.2911 Y12.5497
G01 X8.2620 Y12.5537
G01 X8.2350 Y12.5550
G01 X8.0682 Y12.5550
G01 X8.0663 Y12.5659
G01 X8.0589 Y12.5945
G01 X8.0507 Y12.6176
G01 X8.0383 Y12.6443
G01 X8.0206 Y12.6737
G01 X8.0029 Y12.6973
G01 X7.9847 Y12.7172
G01 X6.9547 Y13.7472
G01 X6.9348 Y13.7654
G01 X6.9112 Y13.7831
G01 X6.8818 Y13.8008
G01 X6.8551 Y13.8132
G01 X6.8320 Y13.8214
G01 X6.8034 Y13.8288
G01 X6.7744 Y13.8334
G01 X6.7450 Y13.8351
G01 X5.7743 Y13.8351
G01 X3.4101 Y16.1993
G01 X3.4101 Y19.7075
G01 X3.4084 Y19.7394
G01 X3.4048 Y19.7636
G01 X3.3979 Y19.7923
G01 X3.3882 Y19.8201
G01 X3.3735 Y19.8511
G01 X3.3581 Y19.8762
G01 X3.3435 Y19.8960
G01 X3.3222 Y19.9197
G01 X2.2922 Y20.9497
G01 X2.2723 Y20.9679
G01 X2.2487 Y20.9856
G01 X2.2193 Y21.0033
G01 X2.1926 Y21.0157
G01 X2.1695 Y21.0239
G01 X2.1409 Y21.0313
G01 X2.1300 Y21.0332
G01 X2.1299 Y21.2025
G01 X2.1283 Y21.2318
G01 X2.1237 Y21.2609
G01 X2.1163 Y21.2894
G01 X2.1080 Y21.3125
G01 X2.0934 Y21.3436
G01 X2.0808 Y21.3646
G01 X2.0634 Y21.3884
G01 X2.0404 Y21.4138
G01 X2.0184 Y21.4334
G01 X1.9946 Y21.4508
G01 X1.9692 Y21.4657
G01 X1.9425 Y21.4780
G01 X1.9147 Y21.4877
G01 X1.8861 Y21.4947
G01 X1.8570 Y21.4987
G01 X1.8300 Y21.5000
G01 X0.5775 Y21.4999
G01 X0.5482 Y21.4983
G01 X0.5239 Y21.4947
G01 X0.4906 Y21.4863
G01 X0.4630 Y21.4762
G01 X0.4364 Y21.4634
G01 X0.4154 Y21.4508
G01 X0.3878 Y21.4303
G01 X0.3662 Y21.4104
G01 X0.3466 Y21.3884
G01 X0.3292 Y21.3646
G01 X0.3143 Y21.3392
G01 X0.3020 Y21.3125
G01 X0.2937 Y21.2894
G01 X0.2863 Y21.2609
G01 X0.2817 Y21.2318
G01 X0.2800 Y21.2000
G01 X0.2800 Y20.2750
G01 X0.2817 Y20.2432
G00 Z2.0000
M05
G00 Z2.0000
G00 Z15.00
G00 X0.0 Y0.0

