(G-CODE GENERATED BY FLATCAM v8.991 - www.flatcam.org - Version Date: 2019/12/27)

(Name: ButterflyJewel-Edge_Cuts.gbr_iso_cnc)
(Type: G-code from Geometry)
(Units: MM)

(Created on Monday, 10 February 2020 at 15:09)

(TOOL DIAMETER: 1.8 mm)
(Feedrate: 120.0 mm/min)
(Feedrate_Z: 60.0 mm/min)
(Feedrate rapids 1500.0 mm/min)

(Z_Cut: -2.4 mm)
(Z_Move: 2.0 mm)
(Z Toolchange: 15.0 mm)
(X,Y Toolchange: 0.0000, 0.0000 mm)
(Z Start: None mm)
(Z End: 15.0 mm)
(Steps per circle: 64)
(Preprocessor Geometry: default)

(X range:   -1.6785 ...   40.9606  mm)
(Y range:   -1.3707 ...   25.7337  mm)

(Spindle Speed: None RPM)
G21
G90
G94




G01 F120.00
G00 Z2.0000

M03
G00 X0.2850 Y20.8516
G01 F60.00
G01 Z-2.4000
G01 F120.00
G01 X0.2719 Y19.5023
G01 X0.4588 Y17.3740
G01 X0.8515 Y15.2740
G01 X1.3739 Y13.4723
G01 X3.1529 Y11.6491
G01 X3.1755 Y11.6250
G01 X3.2009 Y11.5961
G01 X4.6317 Y9.8969
G01 X8.7857 Y10.0642
G01 X8.8154 Y10.0650
G01 X8.8596 Y10.0644
G01 X8.9068 Y10.0616
G01 X8.9549 Y10.0563
G01 X9.0058 Y10.0481
G01 X9.0490 Y10.0389
G01 X9.0948 Y10.0270
G01 X9.1439 Y10.0114
G01 X9.1853 Y9.9960
G01 X9.2298 Y9.9770
G01 X9.2761 Y9.9544
G01 X9.3148 Y9.9331
G01 X9.3551 Y9.9083
G01 X9.3951 Y9.8810
G01 X9.4361 Y9.8497
G01 X9.4699 Y9.8213
G01 X9.5046 Y9.7892
G01 X9.5385 Y9.7546
G01 X9.5726 Y9.7159
G01 X9.6021 Y9.6789
G01 X9.6279 Y9.6431
G01 X9.6560 Y9.5999
G01 X9.6803 Y9.5581
G01 X9.7006 Y9.5188
G01 X9.7204 Y9.4759
G01 X9.7396 Y9.4280
G01 X9.7552 Y9.3822
G01 X9.7683 Y9.3368
G01 X9.7794 Y9.2896
G01 X9.7879 Y9.2431
G01 X9.7943 Y9.1951
G01 X9.7983 Y9.1480
G01 X9.8000 Y9.0996
G01 X9.7993 Y9.0523
G01 X9.7962 Y9.0040
G01 X9.7909 Y8.9570
G01 X9.7831 Y8.9092
G01 X9.7732 Y8.8630
G01 X9.7620 Y8.8202
G01 X9.7474 Y8.7741
G01 X9.7310 Y8.7297
G01 X9.7120 Y8.6852
G01 X9.6913 Y8.6426
G01 X9.6681 Y8.6002
G01 X9.6433 Y8.5599
G01 X9.6160 Y8.5199
G01 X9.5847 Y8.4789
G01 X9.5542 Y8.4428
G01 X9.5212 Y8.4074
G01 X9.4873 Y8.3744
G01 X9.4509 Y8.3424
G01 X9.4164 Y8.3148
G01 X9.3781 Y8.2871
G01 X9.3376 Y8.2606
G01 X9.2968 Y8.2367
G01 X9.2510 Y8.2130
G01 X9.2070 Y8.1929
G01 X9.1630 Y8.1754
G01 X9.1212 Y8.1611
G01 X9.0929 Y8.1525
G01 X5.8248 Y7.2187
G01 X6.7555 Y5.5304
G01 X8.3353 Y3.1404
G01 X10.2673 Y2.2590
G01 X12.4948 Y1.4855
G01 X14.7851 Y0.9241
G01 X16.8714 Y0.6161
G01 X19.2041 Y1.7169
G01 X19.2445 Y1.7348
G01 X19.2926 Y1.7534
G01 X19.3415 Y1.7693
G01 X19.3842 Y1.7811
G01 X19.4345 Y1.7921
G01 X19.4780 Y1.7996
G01 X19.5292 Y1.8057
G01 X19.5733 Y1.8089
G01 X19.6248 Y1.8099
G01 X19.6690 Y1.8088
G01 X19.7203 Y1.8048
G01 X19.7642 Y1.7993
G01 X19.8077 Y1.7917
G01 X19.8580 Y1.7806
G01 X19.9006 Y1.7687
G01 X19.9495 Y1.7527
G01 X19.9975 Y1.7339
G01 X20.0379 Y1.7160
G01 X22.3635 Y0.6120
G01 X24.4491 Y0.9194
G01 X26.7398 Y1.4802
G01 X28.9679 Y2.2532
G01 X30.9008 Y3.1345
G01 X32.4845 Y5.5304
G01 X33.4408 Y7.2653
G01 X30.7352 Y8.1672
G01 X30.6878 Y8.1848
G01 X30.6472 Y8.2021
G01 X30.6065 Y8.2217
G01 X30.5612 Y8.2463
G01 X30.5182 Y8.2728
G01 X30.4809 Y8.2983
G01 X30.4407 Y8.3289
G01 X30.4060 Y8.3579
G01 X30.3736 Y8.3878
G01 X30.3380 Y8.4238
G01 X30.3080 Y8.4575
G01 X30.2762 Y8.4968
G01 X30.2496 Y8.5333
G01 X30.2212 Y8.5763
G01 X30.1958 Y8.6200
G01 X30.1749 Y8.6600
G01 X30.1538 Y8.7060
G01 X30.1370 Y8.7479
G01 X30.1225 Y8.7896
G01 X30.1081 Y8.8381
G01 X30.0975 Y8.8820
G01 X30.0879 Y8.9316
G01 X30.0809 Y8.9827
G01 X30.0770 Y9.0267
G01 X30.0752 Y9.0718
G01 X30.0755 Y9.1224
G01 X30.0781 Y9.1674
G01 X30.0835 Y9.2187
G01 X30.0915 Y9.2686
G01 X30.1008 Y9.3128
G01 X30.1136 Y9.3617
G01 X30.1272 Y9.4048
G01 X30.1448 Y9.4522
G01 X30.1625 Y9.4937
G01 X30.1846 Y9.5391
G01 X30.2063 Y9.5788
G01 X30.2294 Y9.6164
G01 X30.2583 Y9.6591
G01 X30.2889 Y9.6993
G01 X30.3179 Y9.7340
G01 X30.3478 Y9.7664
G01 X30.3845 Y9.8026
G01 X30.4224 Y9.8361
G01 X30.4576 Y9.8644
G01 X30.4933 Y9.8904
G01 X30.5355 Y9.9182
G01 X30.5800 Y9.9442
G01 X30.6192 Y9.9647
G01 X30.6601 Y9.9836
G01 X30.7070 Y10.0027
G01 X30.7557 Y10.0195
G01 X30.7981 Y10.0319
G01 X30.8420 Y10.0425
G01 X30.8926 Y10.0522
G01 X30.9427 Y10.0591
G01 X30.9867 Y10.0630
G01 X31.0318 Y10.0648
G01 X31.0891 Y10.0643
G01 X34.6295 Y9.9220
G01 X36.0391 Y11.5961
G01 X36.0645 Y11.6250
G01 X36.0871 Y11.6491
G01 X37.8313 Y13.4366
G01 X38.3241 Y14.8653
G01 X38.6860 Y16.5427
G01 X38.9164 Y18.2615
G01 X39.0100 Y19.9931
G01 X38.9859 Y20.9489
G01 X36.8688 Y21.2710
G01 X33.9608 Y21.4405
G01 X31.0496 Y21.3398
G01 X28.1603 Y20.9697
G01 X25.3177 Y20.3335
G01 X22.4940 Y19.4198
G01 X22.4364 Y19.4038
G01 X22.3497 Y19.3866
G01 X22.3425 Y19.3855
G01 X22.2546 Y19.3768
G01 X22.2472 Y19.3765
G01 X22.1589 Y19.3765
G01 X22.1515 Y19.3768
G01 X22.0636 Y19.3855
G01 X22.0564 Y19.3866
G01 X21.9697 Y19.4038
G01 X21.9626 Y19.4056
G01 X21.8781 Y19.4312
G01 X21.8711 Y19.4337
G01 X21.7895 Y19.4675
G01 X21.7829 Y19.4707
G01 X21.7050 Y19.5123
G01 X21.6987 Y19.5161
G01 X21.6252 Y19.5652
G01 X21.6193 Y19.5695
G01 X21.5510 Y19.6256
G01 X21.5456 Y19.6305
G01 X21.4831 Y19.6930
G01 X21.4782 Y19.6984
G01 X21.4222 Y19.7667
G01 X21.4178 Y19.7726
G01 X21.3687 Y19.8461
G01 X21.3649 Y19.8524
G01 X21.3233 Y19.9303
G01 X21.3201 Y19.9369
G01 X21.2863 Y20.0185
G01 X21.2839 Y20.0255
G01 X21.2582 Y20.1100
G01 X21.2564 Y20.1171
G01 X21.2392 Y20.2037
G01 X21.2381 Y20.2110
G01 X21.2295 Y20.2989
G01 X21.2291 Y20.3063
G01 X21.2291 Y20.3940
G01 X21.2294 Y20.4012
G01 X21.2378 Y20.4878
G01 X21.2389 Y20.4950
G01 X21.2556 Y20.5804
G01 X21.2574 Y20.5875
G01 X21.2823 Y20.6709
G01 X21.2847 Y20.6777
G01 X21.3175 Y20.7584
G01 X21.3463 Y20.8158
G01 X21.4585 Y21.0219
G01 X21.5196 Y21.1858
G01 X21.5695 Y21.3741
G01 X21.6008 Y21.5664
G01 X21.6132 Y21.7608
G01 X21.6065 Y21.9555
G01 X21.5808 Y22.1486
G01 X21.5365 Y22.3383
G01 X21.4738 Y22.5228
G01 X21.3934 Y22.7003
G01 X21.2961 Y22.8690
G01 X21.1827 Y23.0275
G01 X21.0545 Y23.1741
G01 X20.9125 Y23.3076
G01 X20.7582 Y23.4265
G01 X20.5930 Y23.5298
G01 X20.4185 Y23.6164
G01 X20.2364 Y23.6857
G01 X20.0484 Y23.7368
G01 X19.8564 Y23.7693
G01 X19.6620 Y23.7829
G01 X19.4673 Y23.7775
G01 X19.2740 Y23.7531
G01 X19.0840 Y23.7100
G01 X18.8991 Y23.6485
G01 X18.7212 Y23.5692
G01 X18.5518 Y23.4730
G01 X18.3926 Y23.3607
G01 X18.2451 Y23.2334
G01 X18.1108 Y23.0923
G01 X17.9909 Y22.9387
G01 X17.8865 Y22.7742
G01 X17.7987 Y22.6003
G01 X17.7283 Y22.4186
G01 X17.6760 Y22.2310
G01 X17.6422 Y22.0391
G01 X17.6274 Y21.8448
G01 X17.6315 Y21.6501
G01 X17.6547 Y21.4566
G01 X17.6966 Y21.2664
G01 X17.7569 Y21.0811
G01 X17.7815 Y21.0250
G01 X17.8448 Y20.9610
G01 X17.8498 Y20.9555
G01 X17.9053 Y20.8868
G01 X17.9097 Y20.8809
G01 X17.9583 Y20.8072
G01 X17.9620 Y20.8008
G01 X18.0032 Y20.7227
G01 X18.0063 Y20.7160
G01 X18.0396 Y20.6342
G01 X18.0420 Y20.6272
G01 X18.0671 Y20.5425
G01 X18.0688 Y20.5354
G01 X18.0855 Y20.4486
G01 X18.0866 Y20.4414
G01 X18.0946 Y20.3534
G01 X18.0950 Y20.3461
G01 X18.0944 Y20.2577
G01 X18.0940 Y20.2504
G01 X18.0848 Y20.1625
G01 X18.0836 Y20.1553
G01 X18.0659 Y20.0687
G01 X18.0640 Y20.0616
G01 X18.0379 Y19.9773
G01 X18.0353 Y19.9703
G01 X18.0010 Y19.8890
G01 X17.9978 Y19.8823
G01 X17.9557 Y19.8047
G01 X17.9519 Y19.7984
G01 X17.9023 Y19.7253
G01 X17.8979 Y19.7194
G01 X17.8414 Y19.6515
G01 X17.8365 Y19.6461
G01 X17.7736 Y19.5840
G01 X17.7681 Y19.5791
G01 X17.6995 Y19.5235
G01 X17.6935 Y19.5192
G01 X17.6198 Y19.4706
G01 X17.6135 Y19.4668
G01 X17.5353 Y19.4257
G01 X17.5286 Y19.4226
G01 X17.4468 Y19.3893
G01 X17.4399 Y19.3869
G01 X17.3552 Y19.3618
G01 X17.3480 Y19.3600
G01 X17.2613 Y19.3433
G01 X17.2540 Y19.3423
G01 X17.1661 Y19.3342
G01 X17.1587 Y19.3339
G01 X17.0704 Y19.3345
G01 X17.0630 Y19.3349
G01 X16.9752 Y19.3441
G01 X16.9679 Y19.3452
G01 X16.8814 Y19.3630
G01 X16.8743 Y19.3648
G01 X16.8318 Y19.3769
G01 X13.9962 Y20.2568
G01 X11.1361 Y20.8712
G01 X8.2326 Y21.2281
G01 X5.3088 Y21.3246
G01 X2.3881 Y21.1600
G01 X0.2850 Y20.8516
G00 Z2.0000
G00 X-1.6581 Y21.5787
G01 F60.00
G01 Z-2.4000
G01 F120.00
G01 X-1.6785 Y19.4738
G01 X-1.6776 Y19.4227
G01 X-1.6749 Y19.3791
G01 X-1.4797 Y17.1562
G01 X-1.4738 Y17.1054
G01 X-1.4668 Y17.0622
G01 X-1.0566 Y14.8688
G01 X-1.0458 Y14.8189
G01 X-1.0346 Y14.7766
G01 X-0.4133 Y12.6334
G01 X-0.3976 Y12.5843
G01 X-0.3648 Y12.5023
G01 X-0.3617 Y12.4956
G01 X-0.3210 Y12.4172
G01 X-0.3173 Y12.4109
G01 X-0.2692 Y12.3368
G01 X-0.2649 Y12.3308
G01 X-0.2097 Y12.2619
G01 X-0.2048 Y12.2564
G01 X-0.1431 Y12.1932
G01 X-0.1377 Y12.1881
G01 X-0.0702 Y12.1313
G01 X-0.0643 Y12.1268
G01 X0.0085 Y12.0768
G01 X0.0145 Y12.0732
G01 X1.7322 Y10.3128
G01 X3.4477 Y8.2754
G01 X3.4574 Y8.2641
G01 X3.4868 Y8.2318
G01 X3.4933 Y8.2250
G01 X3.4793 Y8.1934
G01 X3.4635 Y8.1525
G01 X3.4477 Y8.1054
G01 X3.4340 Y8.0561
G01 X3.4237 Y8.0104
G01 X3.4154 Y7.9622
G01 X3.4097 Y7.9157
G01 X3.4061 Y7.8670
G01 X3.4050 Y7.8223
G01 X3.4060 Y7.7765
G01 X3.4094 Y7.7267
G01 X3.4157 Y7.6762
G01 X3.4237 Y7.6298
G01 X3.4344 Y7.5824
G01 X3.4463 Y7.5391
G01 X3.4605 Y7.4957
G01 X3.4784 Y7.4489
G01 X3.4967 Y7.4071
G01 X3.5191 Y7.3623
G01 X5.0666 Y4.5547
G01 X5.0878 Y4.5183
G01 X5.1070 Y4.4878
G01 X6.8609 Y1.8339
G01 X6.8857 Y1.7981
G01 X6.9154 Y1.7586
G01 X6.9733 Y1.6918
G01 X6.9784 Y1.6865
G01 X7.0425 Y1.6258
G01 X7.0481 Y1.6210
G01 X7.1179 Y1.5669
G01 X7.1239 Y1.5626
G01 X7.1986 Y1.5156
G01 X7.2051 Y1.5120
G01 X7.2836 Y1.4727
G01 X7.2902 Y1.4697
G01 X7.3454 Y1.4485
G01 X9.4995 Y0.4658
G01 X9.5383 Y0.4492
G01 X9.5844 Y0.4318
G01 X11.8984 Y-0.3717
G01 X11.9386 Y-0.3846
G01 X11.9861 Y-0.3976
G01 X14.3652 Y-0.9808
G01 X14.4134 Y-0.9912
G01 X14.4550 Y-0.9984
G01 X16.8783 Y-1.3562
G01 X16.9288 Y-1.3622
G01 X17.0163 Y-1.3665
G01 X17.0237 Y-1.3665
G01 X17.1119 Y-1.3623
G01 X17.1192 Y-1.3616
G01 X17.2066 Y-1.3487
G01 X17.2138 Y-1.3473
G01 X17.2995 Y-1.3259
G01 X17.3066 Y-1.3237
G01 X17.3898 Y-1.2941
G01 X17.3966 Y-1.2912
G01 X17.4370 Y-1.2734
G01 X19.6188 Y-0.2437
G01 X21.7949 Y-1.2767
G01 X21.8420 Y-1.2975
G01 X21.8832 Y-1.3134
G01 X21.9322 Y-1.3295
G01 X21.9748 Y-1.3413
G01 X22.0179 Y-1.3510
G01 X22.0686 Y-1.3601
G01 X22.1198 Y-1.3663
G01 X22.1638 Y-1.3696
G01 X22.2080 Y-1.3707
G01 X22.2595 Y-1.3697
G01 X22.3036 Y-1.3665
G01 X22.3547 Y-1.3604
G01 X24.7787 Y-1.0032
G01 X24.8203 Y-0.9961
G01 X24.8684 Y-0.9856
G01 X27.2480 Y-0.4030
G01 X27.2888 Y-0.3920
G01 X27.3357 Y-0.3771
G01 X29.6503 Y0.4259
G01 X29.6898 Y0.4407
G01 X29.7352 Y0.4599
G01 X31.9643 Y1.4762
G01 X31.9964 Y1.4915
G01 X32.0361 Y1.5125
G01 X32.0754 Y1.5358
G01 X32.1172 Y1.5633
G01 X32.1581 Y1.5934
G01 X32.1930 Y1.6218
G01 X32.2269 Y1.6522
G01 X32.2642 Y1.6890
G01 X32.2968 Y1.7249
G01 X32.3255 Y1.7596
G01 X32.3528 Y1.7960
G01 X32.3733 Y1.8257
G01 X34.1329 Y4.4877
G01 X34.1522 Y4.5183
G01 X34.1734 Y4.5547
G01 X35.7139 Y7.3493
G01 X35.7341 Y7.3882
G01 X35.7534 Y7.4294
G01 X35.7700 Y7.4701
G01 X35.7873 Y7.5188
G01 X35.8016 Y7.5670
G01 X35.8124 Y7.6111
G01 X35.8208 Y7.6544
G01 X35.8283 Y7.7054
G01 X35.8328 Y7.7556
G01 X35.8348 Y7.8007
G01 X35.8345 Y7.8513
G01 X35.8320 Y7.8974
G01 X35.8267 Y7.9467
G01 X35.8199 Y7.9911
G01 X35.8110 Y8.0347
G01 X35.7985 Y8.0843
G01 X35.7834 Y8.1329
G01 X35.7678 Y8.1759
G01 X35.7509 Y8.2161
G01 X35.7465 Y8.2257
G01 X35.7630 Y8.2423
G01 X35.7923 Y8.2754
G01 X37.4998 Y10.3033
G01 X39.4240 Y12.1701
G01 X39.4691 Y12.2171
G01 X39.5251 Y12.2854
G01 X39.5295 Y12.2913
G01 X39.5786 Y12.3647
G01 X39.5824 Y12.3711
G01 X39.6240 Y12.4490
G01 X39.6272 Y12.4556
G01 X39.6610 Y12.5372
G01 X39.6777 Y12.5873
G01 X40.1991 Y14.3237
G01 X40.2087 Y14.3580
G01 X40.2183 Y14.3984
G01 X40.6004 Y16.1692
G01 X40.6082 Y16.2100
G01 X40.6136 Y16.2453
G01 X40.8543 Y18.0407
G01 X40.8589 Y18.0821
G01 X40.8615 Y18.1176
G01 X40.9593 Y19.9265
G01 X40.9606 Y19.9680
G01 X40.9604 Y20.0037
G01 X40.9147 Y21.8146
G01 X40.9117 Y21.8694
G01 X40.9065 Y21.9183
G01 X40.8982 Y21.9701
G01 X40.8890 Y22.0139
G01 X40.8776 Y22.0575
G01 X40.8625 Y22.1058
G01 X40.8447 Y22.1536
G01 X40.8271 Y22.1946
G01 X40.8074 Y22.2353
G01 X40.7832 Y22.2796
G01 X40.7564 Y22.3231
G01 X40.7311 Y22.3599
G01 X40.7038 Y22.3959
G01 X40.6715 Y22.4347
G01 X40.6367 Y22.4721
G01 X40.6048 Y22.5033
G01 X40.5709 Y22.5333
G01 X40.5316 Y22.5650
G01 X40.4902 Y22.5949
G01 X40.4528 Y22.6193
G01 X40.4138 Y22.6421
G01 X40.3690 Y22.6656
G01 X40.3280 Y22.6845
G01 X40.2811 Y22.7034
G01 X40.2385 Y22.7182
G01 X40.1899 Y22.7325
G01 X40.1403 Y22.7442
G01 X40.0978 Y22.7522
G01 X40.0867 Y22.7539
G01 X37.1174 Y23.2057
G01 X37.0760 Y23.2111
G01 X37.0274 Y23.2152
G01 X34.0291 Y23.3899
G01 X33.9873 Y23.3914
G01 X33.9386 Y23.3910
G01 X30.9370 Y23.2871
G01 X30.8953 Y23.2847
G01 X30.8468 Y23.2798
G01 X27.8677 Y22.8982
G01 X27.8264 Y22.8920
G01 X27.7786 Y22.8826
G01 X24.8477 Y22.2266
G01 X24.8071 Y22.2166
G01 X24.7604 Y22.2028
G01 X23.5625 Y21.8152
G01 X23.5538 Y22.0700
G01 X23.5506 Y22.1212
G01 X23.5459 Y22.1649
G01 X23.5077 Y22.4526
G01 X23.4995 Y22.5033
G01 X23.4905 Y22.5464
G01 X23.4244 Y22.8290
G01 X23.4113 Y22.8786
G01 X23.3982 Y22.9206
G01 X23.3048 Y23.1954
G01 X23.2870 Y23.2435
G01 X23.2698 Y23.2840
G01 X23.1500 Y23.5484
G01 X23.1309 Y23.5880
G01 X23.1065 Y23.6332
G01 X22.9615 Y23.8846
G01 X22.9386 Y23.9221
G01 X22.9100 Y23.9647
G01 X22.7411 Y24.2008
G01 X22.7147 Y24.2359
G01 X22.6820 Y24.2755
G01 X22.4909 Y24.4939
G01 X22.4611 Y24.5263
G01 X22.4247 Y24.5625
G01 X22.2132 Y24.7612
G01 X22.1804 Y24.7906
G01 X22.1407 Y24.8230
G01 X21.9108 Y25.0002
G01 X21.8753 Y25.0262
G01 X21.8326 Y25.0546
G01 X21.5865 Y25.2085
G01 X21.5486 Y25.2309
G01 X21.5033 Y25.2550
G01 X21.2434 Y25.3841
G01 X21.2035 Y25.4027
G01 X21.1561 Y25.4223
G01 X20.8848 Y25.5254
G01 X20.8433 Y25.5401
G01 X20.7942 Y25.5549
G01 X20.5141 Y25.6311
G01 X20.4714 Y25.6416
G01 X20.4210 Y25.6515
G01 X20.1349 Y25.7000
G01 X20.0913 Y25.7063
G01 X20.0403 Y25.7113
G01 X19.7507 Y25.7316
G01 X19.7068 Y25.7336
G01 X19.6555 Y25.7336
G01 X19.3654 Y25.7255
G01 X19.3214 Y25.7232
G01 X19.2703 Y25.7182
G01 X18.9824 Y25.6819
G01 X18.9389 Y25.6753
G01 X18.8886 Y25.6653
G01 X18.6055 Y25.6010
G01 X18.5629 Y25.5902
G01 X18.5138 Y25.5754
G01 X18.2384 Y25.4838
G01 X18.1970 Y25.4689
G01 X18.1495 Y25.4493
G01 X17.8844 Y25.3313
G01 X17.8446 Y25.3124
G01 X17.7993 Y25.2883
G01 X17.5470 Y25.1450
G01 X17.5093 Y25.1223
G01 X17.4665 Y25.0939
G01 X17.2294 Y24.9266
G01 X17.1941 Y24.9003
G01 X17.1543 Y24.8679
G01 X16.9346 Y24.6782
G01 X16.9020 Y24.6487
G01 X16.8656 Y24.6125
G01 X16.6655 Y24.4023
G01 X16.6360 Y24.3697
G01 X16.6033 Y24.3301
G01 X16.4246 Y24.1014
G01 X16.3984 Y24.0661
G01 X16.3697 Y24.0235
G01 X16.2142 Y23.7784
G01 X16.1916 Y23.7407
G01 X16.1672 Y23.6956
G01 X16.0364 Y23.4365
G01 X16.0146 Y23.3900
G01 X15.9977 Y23.3494
G01 X15.8928 Y23.0788
G01 X15.8756 Y23.0305
G01 X15.8627 Y22.9884
G01 X15.7848 Y22.7088
G01 X15.7724 Y22.6590
G01 X15.7637 Y22.6159
G01 X15.7134 Y22.3301
G01 X15.7059 Y22.2793
G01 X15.7015 Y22.2355
G01 X15.6793 Y21.9461
G01 X15.6769 Y21.8949
G01 X15.6767 Y21.8509
G01 X15.6783 Y21.7766
G01 X14.5326 Y22.1322
G01 X14.4875 Y22.1449
G01 X14.4484 Y22.1543
G01 X11.5031 Y22.7870
G01 X11.4636 Y22.7945
G01 X11.4173 Y22.8014
G01 X8.4273 Y23.1689
G01 X8.3806 Y23.1735
G01 X8.3405 Y23.1757
G01 X5.3296 Y23.2751
G01 X5.2894 Y23.2755
G01 X5.2426 Y23.2740
G01 X2.2349 Y23.1045
G01 X2.1881 Y23.1007
G01 X2.1484 Y23.0958
G01 X-0.8263 Y22.6599
G01 X-0.8756 Y22.6513
G01 X-0.9242 Y22.6405
G01 X-0.9313 Y22.6388
G01 X-1.0159 Y22.6131
G01 X-1.0228 Y22.6106
G01 X-1.1044 Y22.5768
G01 X-1.1110 Y22.5737
G01 X-1.1889 Y22.5321
G01 X-1.1953 Y22.5283
G01 X-1.2687 Y22.4792
G01 X-1.2746 Y22.4748
G01 X-1.3429 Y22.4188
G01 X-1.3483 Y22.4138
G01 X-1.4108 Y22.3514
G01 X-1.4157 Y22.3459
G01 X-1.4718 Y22.2777
G01 X-1.4762 Y22.2717
G01 X-1.5252 Y22.1983
G01 X-1.5290 Y22.1920
G01 X-1.5706 Y22.1141
G01 X-1.5738 Y22.1074
G01 X-1.6076 Y22.0258
G01 X-1.6101 Y22.0189
G01 X-1.6357 Y21.9344
G01 X-1.6375 Y21.9272
G01 X-1.6547 Y21.8406
G01 X-1.6558 Y21.8333
G01 X-1.6645 Y21.7454
G01 X-1.6648 Y21.7381
G01 X-1.6648 Y21.6485
G01 X-1.6644 Y21.6409
G01 X-1.6581 Y21.5787
G00 Z2.0000
M05
G00 Z2.0000
G00 Z15.00
G00 X0.0 Y0.0

